FelipeH92/Task-Space-Control-Vision/Experiments/RTDE/rtdeMaster/examples/robot_data.csv
timestamp target_q_0 target_q_1 target_q_2 target_q_3 target_q_4 target_q_5 target_qd_0 target_qd_1 target_qd_2 target_qd_3 target_qd_4 target_qd_5 target_qdd_0 target_qdd_1 target_qdd_2 target_qdd_3 target_qdd_4 target_qdd_5 target_current_0 target_current_1 target_current_2 target_current_3 target_current_4 target_current_5 target_moment_0 target_moment_1 target_moment_2 target_moment_3 target_moment_4 target_moment_5 actual_q_0 actual_q_1 actual_q_2 actual_q_3 actual_q_4 actual_q_5 actual_qd_0 actual_qd_1 actual_qd_2 actual_qd_3 actual_qd_4 actual_qd_5 actual_current_0 actual_current_1 actual_current_2 actual_current_3 actual_current_4 actual_current_5 joint_control_output_0 joint_control_output_1 joint_control_output_2 joint_control_output_3 joint_control_output_4 joint_control_output_5 actual_TCP_pose_0 actual_TCP_pose_1 actual_TCP_pose_2 actual_TCP_pose_3 actual_TCP_pose_4 actual_TCP_pose_5 actual_TCP_speed_0 actual_TCP_speed_1 actual_TCP_speed_2 actual_TCP_speed_3 actual_TCP_speed_4 actual_TCP_speed_5 actual_TCP_force_0 actual_TCP_force_1 actual_TCP_force_2 actual_TCP_force_3 actual_TCP_force_4 actual_TCP_force_5 target_TCP_pose_0 target_TCP_pose_1 target_TCP_pose_2 target_TCP_pose_3 target_TCP_pose_4 target_TCP_pose_5 target_TCP_speed_0 target_TCP_speed_1 target_TCP_speed_2 target_TCP_speed_3 target_TCP_speed_4 target_TCP_speed_5 actual_digital_input_bits joint_temperatures_0 joint_temperatures_1 joint_temperatures_2 joint_temperatures_3 joint_temperatures_4 joint_temperatures_5 actual_execution_time robot_mode joint_mode_0 joint_mode_1 joint_mode_2 joint_mode_3 joint_mode_4 joint_mode_5 safety_mode actual_tool_accelerometer_0 actual_tool_accelerometer_1 actual_tool_accelerometer_2 speed_scaling target_speed_fraction actual_momentum actual_main_voltage actual_robot_voltage actual_robot_current actual_joint_voltage_0 actual_joint_voltage_1 actual_joint_voltage_2 actual_joint_voltage_3 actual_joint_voltage_4 actual_joint_voltage_5 actual_digital_output_bits runtime_state
11097.336 1.5707963267948972 -0.9164837042437952 1.6507530212402344 2.446536064147952 -1.5723751227008256 0.788799822330474 0.0 0.0 0.0 0.0 0.0 0.0 0.0 0.0 0.0 0.0 0.0 0.0 -4.9698346424733074e-17 -3.10307317465728 -1.062087631657945 -0.04848680224919913 -2.5561648528743482e-06 0.0 -5.634278987228951e-16 -35.273593764502415 -12.026036211963966 -0.4031401294505821 -2.1372821845480153e-05 0.0 1.5707858800888062 -0.9164717833148401 1.6507411003112793 2.4464640617370605 -1.57243520418276 0.7887998223304749 0.0 0.0 -0.0 0.0 0.0 0.0 0.2398737221956253 -3.1542274951934814 -1.08951997756958 0.0045751235447824 0.010675288736820221 0.09455255419015884 0.2376319169998169 -3.1519856452941895 -1.0940035581588745 0.0 0.013725370168685913 0.10065271705389023 0.11226785782627637 -0.6350378625929223 0.2542930463216407 0.729279900178869 1.8045403699442184 -1.729957198181839 0.0 0.0 0.0 0.0 0.0 0.0 -5.569476186292995 0.7848899919475243 -2.2015158065857716 -0.6177942421378483 0.8776949460271192 0.3996440404310786 0.11227945996387118 -0.6350392248090503 0.25428985454461966 0.729239607475029 1.804616118944239 -1.7298545245799233 0.0 0.0 0.0 0.0 0.0 0.0 0 33.269981384277344 33.39998245239258 31.349990844726562 38.959983825683594 41.7199821472168 43.129981994628906 0.3576 7 253 253 253 253 253 253 1 -6.17948055267334 -6.569069862365723 -0.32665538787841797 1.0 1.0 0.0 48.25174331665039 48.25174331665039 0.5729187726974487 48.029998779296875 48.029998779296875 48.0 48.06100082397461 48.01499938964844 47.939998626708984 0 1
11097.344 1.5707963267948972 -0.9164837042437952 1.6507530212402344 2.446536064147952 -1.5723751227008256 0.788799822330474 0.0 0.0 0.0 0.0 0.0 0.0 0.0 0.0 0.0 0.0 0.0 0.0 -4.9698346424733074e-17 -3.10307317465728 -1.062087631657945 -0.04848680224919913 -2.5561648528743482e-06 0.0 -5.634278987228951e-16 -35.273593764502415 -12.026036211963966 -0.4031401294505821 -2.1372821845480153e-05 0.0 1.5707858800888062 -0.9164837042437952 1.6507654190063477 2.446512222290039 -1.572423283253805 0.7888357639312744 0.0 0.0 -0.0 0.0 0.0 0.0 0.2398737221956253 -3.1430184841156006 -1.0827945470809937 0.0015250411815941334 0.030500823631882668 0.0930275097489357 0.2376319169998169 -3.1519856452941895 -1.0940035581588745 0.0 0.013725370168685913 0.10370279848575592 0.11226883669332909 -0.635036114765459 0.2542872948516613 0.7293212118287242 1.8045775401164506 -1.729879370414966 0.0 0.0 0.0 0.0 0.0 0.0 -5.217037931637305 0.7111959993927707 -1.883736685272093 -0.5710129076230703 0.8719134238747794 0.18409605652883732 0.11227945996387118 -0.6350392248090503 0.25428985454461966 0.729239607475029 1.804616118944239 -1.7298545245799233 0.0 0.0 0.0 0.0 0.0 0.0 0 33.269981384277344 33.39998245239258 31.349990844726562 38.959983825683594 41.7199821472168 43.129981994628906 0.358416 7 253 253 253 253 253 253 1 -6.1375250816345215 -6.575063228607178 -0.3326490521430969 1.0 1.0 0.0 48.25174331665039 48.25174331665039 0.6445291042327881 48.01499938964844 48.029998779296875 48.0 48.06100082397461 48.04600143432617 47.939998626708984 0 1
11097.351999999999 1.5707963267948972 -0.9164837042437952 1.6507530212402344 2.446536064147952 -1.5723751227008256 0.788799822330474 0.0 0.0 0.0 0.0 0.0 0.0 0.0 0.0 0.0 0.0 0.0 0.0 -4.9698346424733074e-17 -3.10307317465728 -1.062087631657945 -0.04848680224919913 -2.5561648528743482e-06 0.0 -5.634278987228951e-16 -35.273593764502415 -12.026036211963966 -0.4031401294505821 -2.1372821845480153e-05 0.0 1.570773959159851 -0.9164837042437952 1.6507291793823242 2.446500301361084 -1.5724471251117151 0.7888477444648743 0.0 0.0 -0.0 0.0 0.0 0.0 0.25556638836860657 -3.1631946563720703 -1.08951997756958 0.0015250411815941334 0.0045751235447824 0.0930275097489357 0.24435734748840332 -3.1519856452941895 -1.0940035581588745 0.0 0.0091502470895648 0.10370279848575592 0.11225931320528622 -0.6350426195920823 0.25430198465623727 0.729346523618004 1.804519759917986 -1.7299329608895326 0.0 0.0 0.0 0.0 0.0 0.0 -5.983185346607752 0.5389671809893574 -2.3227890808351455 -0.6211631188170411 0.8596762162958277 0.49053578108457385 0.11227945996387118 -0.6350392248090503 0.25428985454461966 0.729239607475029 1.804616118944239 -1.7298545245799233 0.0 0.0 0.0 0.0 0.0 0.0 0 33.269981384277344 33.39998245239258 31.349990844726562 38.959983825683594 41.7199821472168 43.129981994628906 0.37332 7 253 253 253 253 253 253 1 -6.146515369415283 -6.578060150146484 -0.3236585259437561 1.0 1.0 0.0 48.25174331665039 48.25174331665039 0.6445291042327881 48.01499938964844 48.029998779296875 48.0 48.06100082397461 48.04600143432617 47.939998626708984 0 1
11097.359999999999 1.5707963267948972 -0.9164837042437952 1.6507530212402344 2.446536064147952 -1.5723751227008256 0.788799822330474 0.0 0.0 0.0 0.0 0.0 0.0 0.0 0.0 0.0 0.0 0.0 0.0 -4.9698346424733074e-17 -3.10307317465728 -1.062087631657945 -0.04848680224919913 -2.5561648528743482e-06 0.0 -5.634278987228951e-16 -35.273593764502415 -12.026036211963966 -0.4031401294505821 -2.1372821845480153e-05 0.0 1.5707858800888062 -0.9164956251727503 1.6507773399353027 2.446500301361084 -1.572423283253805 0.7888597249984741 0.0 0.0 -0.0 0.0 0.0 0.0 0.24435734748840332 -3.1452600955963135 -1.0962454080581665 0.0030500823631882668 0.012200329452753067 0.0930275097489357 0.25108277797698975 -3.1519856452941895 -1.0940035581588745 0.0 0.010675288736820221 0.10370279848575592 0.11226883270221372 -0.6350310017230336 0.2542914086319064 0.7293350712201583 1.8045498558306456 -1.7298731642046994 0.0 0.0 0.0 0.0 0.0 0.0 -5.737320538995108 1.2439364393519283 -2.028328092952815 -0.5463899939092438 0.8638941064135622 0.3976628741991501 0.11227945996387118 -0.6350392248090503 0.25428985454461966 0.729239607475029 1.804616118944239 -1.7298545245799233 0.0 0.0 0.0 0.0 0.0 0.0 0 33.269981384277344 33.39998245239258 31.349990844726562 38.959983825683594 41.7199821472168 43.129981994628906 0.41748 7 253 253 253 253 253 253 1 -6.161499500274658 -6.566072940826416 -0.35362693667411804 1.0 1.0 0.0 48.25174331665039 48.25174331665039 0.5729187726974487 48.01499938964844 48.029998779296875 48.0 48.04600143432617 48.04600143432617 47.939998626708984 0 1
11097.368 1.5707963267948972 -0.9164837042437952 1.6507530212402344 2.446536064147952 -1.5723751227008256 0.788799822330474 0.0 0.0 0.0 0.0 0.0 0.0 0.0 0.0 0.0 0.0 0.0 0.0 -4.9698346424733074e-17 -3.10307317465728 -1.062087631657945 -0.04848680224919913 -2.5561648528743482e-06 0.0 -5.634278987228951e-16 -35.273593764502415 -12.026036211963966 -0.4031401294505821 -2.1372821845480153e-05 0.0 1.5708098411560059 -0.9164355436908167 1.6507530212402344 2.4464759826660156 -1.5724709669696253 0.7888477444648743 0.0 0.0 -0.0 0.0 0.0 0.0 0.25108277797698975 -3.1542274951934814 -1.0940035581588745 0.0 0.013725370168685913 0.09455255419015884 0.23314829170703888 -3.1519856452941895 -1.0940035581588745 0.0 0.010675288736820221 0.09912768006324768 0.1122801036396405 -0.6350402200179309 0.25426455206644455 0.7293528676819911 1.8045679569306914 -1.7298884152965395 0.0 0.0 0.0 0.0 0.0 0.0 -5.799112752432208 0.9062896842652585 -2.1400620484271573 -0.5588313285868395 0.878605903170356 0.389365468007672 0.11227945996387118 -0.6350392248090503 0.25428985454461966 0.729239607475029 1.804616118944239 -1.7298545245799233 0.0 0.0 0.0 0.0 0.0 0.0 0 33.269981384277344 33.39998245239258 31.349990844726562 38.959983825683594 41.7199821472168 43.129981994628906 0.365568 7 253 253 253 253 253 253 1 -6.143518447875977 -6.581057071685791 -0.35362693667411804 1.0 1.0 0.0 48.3125114440918 48.25174331665039 0.7519552707672119 48.01499938964844 48.029998779296875 48.0 48.04600143432617 48.04600143432617 47.939998626708984 0 1
11097.376 1.5707963267948972 -0.9164837042437952 1.6507530212402344 2.446536064147952 -1.5723751227008256 0.788799822330474 0.0 0.0 0.0 0.0 0.0 0.0 0.0 0.0 0.0 0.0 0.0 0.0 -4.9698346424733074e-17 -3.10307317465728 -1.062087631657945 -0.04848680224919913 -2.5561648528743482e-06 0.0 -5.634278987228951e-16 -35.273593764502415 -12.026036211963966 -0.4031401294505821 -2.1372821845480153e-05 0.0 1.5708218812942505 -0.91644794145693 1.6507291793823242 2.4464759826660156 -1.572423283253805 0.7888357639312744 0.0 0.0 -0.0 0.0 0.0 0.0 0.24884097278118134 -3.1631946563720703 -1.0917617082595825 0.0015250411815941334 0.010675288736820221 0.09912768006324768 0.2376319169998169 -3.1519856452941895 -1.0940035581588745 0.0 0.010675288736820221 0.10522784292697906 0.1122917067859934 -0.6350408907478143 0.25428135060689977 0.7292692773646222 1.8045434758898975 -1.7298844700539444 0.0 0.0 0.0 0.0 0.0 0.0 -5.748402839141147 0.6351601383645584 -2.3384239027045632 -0.6152152742508822 0.9205286472847631 0.4160974522088963 0.11227945996387118 -0.6350392248090503 0.25428985454461966 0.729239607475029 1.804616118944239 -1.7298545245799233 0.0 0.0 0.0 0.0 0.0 0.0 0 33.269981384277344 33.39998245239258 31.349990844726562 38.959983825683594 41.7199821472168 43.129981994628906 0.35658 7 253 253 253 253 253 253 1 -6.128534317016602 -6.548091888427734 -0.3356458842754364 1.0 1.0 0.0 48.3125114440918 48.25174331665039 0.6445291042327881 48.01499938964844 48.029998779296875 47.97100067138672 48.04600143432617 48.04600143432617 47.939998626708984 0 1
11097.384 1.5707963267948972 -0.9164837042437952 1.6507530212402344 2.446536064147952 -1.5723751227008256 0.788799822330474 0.0 0.0 0.0 0.0 0.0 0.0 0.0 0.0 0.0 0.0 0.0 0.0 -4.9698346424733074e-17 -3.10307317465728 -1.062087631657945 -0.04848680224919913 -2.5561648528743482e-06 0.0 -5.634278987228951e-16 -35.273593764502415 -12.026036211963966 -0.4031401294505821 -2.1372821845480153e-05 0.0 1.5708098411560059 -0.9164837042437952 1.6507291793823242 2.446524143218994 -1.5724108854876917 0.7888597249984741 0.0 0.0 -0.0 0.0 0.0 0.0 0.2421155422925949 -3.1497437953948975 -1.08951997756958 -0.007625205907970667 0.012200329452753067 0.09912768006324768 0.2376319169998169 -3.1519856452941895 -1.0940035581588745 0.0 0.010675288736820221 0.10370279848575592 0.11228509714938098 -0.635040748597017 0.25429989063508557 0.7292933056596876 1.8045400911750804 -1.729859411494664 0.0 0.0 0.0 0.0 0.0 0.0 -5.580558752566249 0.7081891449646222 -1.8809733909031014 -0.4840543633925819 0.9228381066768331 0.3868007574052208 0.11227945996387118 -0.6350392248090503 0.25428985454461966 0.729239607475029 1.804616118944239 -1.7298545245799233 0.0 0.0 0.0 0.0 0.0 0.0 0 33.269981384277344 33.39998245239258 31.349990844726562 38.959983825683594 41.7199821472168 43.129981994628906 0.358369 7 253 253 253 253 253 253 1 -6.155506134033203 -6.569069862365723 -0.3236585259437561 1.0 1.0 0.0 48.3125114440918 48.25174331665039 0.6803395748138428 48.01499938964844 48.04600143432617 47.97100067138672 48.04600143432617 48.04600143432617 47.939998626708984 0 1
11097.392 1.5707963267948972 -0.9164837042437952 1.6507530212402344 2.446536064147952 -1.5723751227008256 0.788799822330474 0.0 0.0 0.0 0.0 0.0 0.0 0.0 0.0 0.0 0.0 0.0 0.0 -4.9698346424733074e-17 -3.10307317465728 -1.062087631657945 -0.04848680224919913 -2.5561648528743482e-06 0.0 -5.634278987228951e-16 -35.273593764502415 -12.026036211963966 -0.4031401294505821 -2.1372821845480153e-05 0.0 1.5707979202270508 -0.9164717833148401 1.6507411003112793 2.4464759826660156 -1.572423283253805 0.7888237833976746 0.0 0.0 -0.0 0.0 0.0 0.0 0.2398737221956253 -3.1430184841156006 -1.0962454080581665 0.0 0.012200329452753067 0.10827792435884476 0.2376319169998169 -3.1519856452941895 -1.0940035581588745 0.0 0.010675288736820221 0.10370279848575592 0.1122764900031704 -0.6350375945532908 0.2542920053439815 0.7292795066608015 1.8045379241037858 -1.7299168712415431 0.0 0.0 0.0 0.0 0.0 0.0 -5.645333103018798 1.2520779257344796 -1.928475463368074 -0.5102100144135497 1.0092585561764627 0.39535354483179613 0.11227945996387118 -0.6350392248090503 0.25428985454461966 0.729239607475029 1.804616118944239 -1.7298545245799233 0.0 0.0 0.0 0.0 0.0 0.0 0 33.269981384277344 33.39998245239258 31.349990844726562 38.959983825683594 41.7199821472168 43.129981994628906 0.356868 7 253 253 253 253 253 253 1 -6.161499500274658 -6.545094966888428 -0.34163957834243774 1.0 1.0 0.0 48.3125114440918 48.25174331665039 0.6803395748138428 48.01499938964844 48.04600143432617 47.97100067138672 48.04600143432617 48.04600143432617 47.939998626708984 0 1
11097.4 1.5707963267948972 -0.9164837042437952 1.6507530212402344 2.446536064147952 -1.5723751227008256 0.788799822330474 0.0 0.0 0.0 0.0 0.0 0.0 0.0 0.0 0.0 0.0 0.0 0.0 -4.9698346424733074e-17 -3.10307317465728 -1.062087631657945 -0.04848680224919913 -2.5561648528743482e-06 0.0 -5.634278987228951e-16 -35.273593764502415 -12.026036211963966 -0.4031401294505821 -2.1372821845480153e-05 0.0 1.5707858800888062 -0.9164837042437952 1.6507892608642578 2.4464759826660156 -1.57243520418276 0.7887998223304749 0.0 0.0 -0.0 0.0 0.0 0.0 0.2129720002412796 -3.1475019454956055 -1.087278127670288 0.0015250411815941334 0.015250411815941334 0.08387726545333862 0.2376319169998169 -3.1519856452941895 -1.0940035581588745 0.0 0.016775453463196754 0.10065271705389023 0.11226783678158837 -0.635028694978527 0.25428146428498877 0.7292996847029194 1.8045880994952412 -1.7299197037151919 0.0 0.0 0.0 0.0 0.0 0.0 -4.867662148386942 0.7969631457972648 -1.9955882497389186 -0.5706075101870539 0.7806980869277171 0.2945168292460929 0.11227945996387118 -0.6350392248090503 0.25428985454461966 0.729239607475029 1.804616118944239 -1.7298545245799233 0.0 0.0 0.0 0.0 0.0 0.0 0 33.269981384277344 33.39998245239258 31.349990844726562 38.959983825683594 41.7199821472168 43.129981994628906 0.358248 7 253 253 253 253 253 253 1 -6.128534317016602 -6.557082176208496 -0.32965222001075745 1.0 1.0 0.0 48.25174331665039 48.25174331665039 0.6803395748138428 48.01499938964844 48.04600143432617 47.97100067138672 48.04600143432617 48.04600143432617 47.939998626708984 0 1
11097.408 1.5707963267948972 -0.9164837042437952 1.6507530212402344 2.446536064147952 -1.5723751227008256 0.788799822330474 0.0 0.0 0.0 0.0 0.0 0.0 0.0 0.0 0.0 0.0 0.0 0.0 -4.9698346424733074e-17 -3.10307317465728 -1.062087631657945 -0.04848680224919913 -2.5561648528743482e-06 0.0 -5.634278987228951e-16 -35.273593764502415 -12.026036211963966 -0.4031401294505821 -2.1372821845480153e-05 0.0 1.5708218812942505 -0.9164956251727503 1.6507773399353027 2.4464879035949707 -1.57243520418276 0.7888237833976746 0.0 0.0 -0.0 0.0 0.0 0.0 0.23314829170703888 -3.1587109565734863 -1.0917617082595825 0.0015250411815941334 0.019825534895062447 0.09912768006324768 0.2376319169998169 -3.1519856452941895 -1.0940035581588745 0.0 0.013725370168685913 0.10065271705389023 0.11229070821328087 -0.6350258321050645 0.2542924908275661 0.7292768084787525 1.8045630669075465 -1.729890717554379 0.0 0.0 0.0 0.0 0.0 0.0 -5.252758744353385 0.7373564116797162 -2.250822122112116 -0.59976135852293 0.9255641667778126 0.2892607518032169 0.11227945996387118 -0.6350392248090503 0.25428985454461966 0.729239607475029 1.804616118944239 -1.7298545245799233 0.0 0.0 0.0 0.0 0.0 0.0 0 33.269981384277344 33.39998245239258 31.349990844726562 38.959983825683594 41.7199821472168 43.129981994628906 0.357636 7 253 253 253 253 253 253 1 -6.1525092124938965 -6.569069862365723 -0.33864274621009827 1.0 1.0 0.0 48.3125114440918 48.25174331665039 0.6445291042327881 48.01499938964844 48.04600143432617 47.97100067138672 48.04600143432617 48.04600143432617 47.939998626708984 0 1
11097.416 1.5707963267948972 -0.9164837042437952 1.6507530212402344 2.446536064147952 -1.5723751227008256 0.788799822330474 0.0 0.0 0.0 0.0 0.0 0.0 0.0 0.0 0.0 0.0 0.0 0.0 -4.9698346424733074e-17 -3.10307317465728 -1.062087631657945 -0.04848680224919913 -2.5561648528743482e-06 0.0 -5.634278987228951e-16 -35.273593764502415 -12.026036211963966 -0.4031401294505821 -2.1372821845480153e-05 0.0 1.5708218812942505 -0.9164837042437952 1.6507892608642578 2.446536064147949 -1.572423283253805 0.7888237833976746 0.0 0.0 -0.0 0.0 0.0 0.0 0.23539011180400848 -3.1542274951934814 -1.098487138748169 0.0015250411815941334 0.019825534895062447 0.09912768006324768 0.2376319169998169 -3.1519856452941895 -1.0940035581588745 0.0 0.013725370168685913 0.10065271705389023 0.11229168789834165 -0.6350301527478072 0.25427626407189413 0.7292946519112019 1.804635278046529 -1.7298269880218644 0.0 0.0 0.0 0.0 0.0 0.0 -5.380690446458166 1.1189578717449284 -2.1973717623064877 -0.5600509636398573 0.925514271247789 0.2991764721715985 0.11227945996387118 -0.6350392248090503 0.25428985454461966 0.729239607475029 1.804616118944239 -1.7298545245799233 0.0 0.0 0.0 0.0 0.0 0.0 0 33.269981384277344 33.39998245239258 31.349990844726562 38.959983825683594 41.7199821472168 43.129981994628906 0.362196 7 253 253 253 253 253 253 1 -6.164496421813965 -6.569069862365723 -0.3326490521430969 1.0 1.0 0.0 48.3125114440918 48.25174331665039 0.7161448001861572 48.01499938964844 48.04600143432617 47.97100067138672 48.04600143432617 48.029998779296875 47.939998626708984 0 1
11097.423999999999 1.5707963267948972 -0.9164837042437952 1.6507530212402344 2.446536064147952 -1.5723751227008256 0.788799822330474 0.0 0.0 0.0 0.0 0.0 0.0 0.0 0.0 0.0 0.0 0.0 0.0 -4.9698346424733074e-17 -3.10307317465728 -1.062087631657945 -0.04848680224919913 -2.5561648528743482e-06 0.0 -5.634278987228951e-16 -35.273593764502415 -12.026036211963966 -0.4031401294505821 -2.1372821845480153e-05 0.0 1.5707979202270508 -0.9164598623858851 1.6507530212402344 2.446512222290039 -1.57243520418276 0.7888597249984741 0.0 0.0 -0.0 0.0 0.0 0.0 0.2376319169998169 -3.1542274951934814 -1.0715854167938232 0.0030500823631882668 0.012200329452753067 0.09760263562202454 0.2376319169998169 -3.1519856452941895 -1.0940035581588745 0.0 0.010675288736820221 0.10065271705389023 0.11227549785238124 -0.6350408412288592 0.2542768311935221 0.7293441096609345 1.8045732279981161 -1.7298553680278015 0.0 0.0 0.0 0.0 0.0 0.0 -5.33934017014405 0.011621851574397185 -2.0736572245258165 -0.6641561185429177 0.9074236838400987 0.3688238088460924 0.11227945996387118 -0.6350392248090503 0.25428985454461966 0.729239607475029 1.804616118944239 -1.7298545245799233 0.0 0.0 0.0 0.0 0.0 0.0 0 33.269981384277344 33.39998245239258 31.349990844726562 38.959983825683594 41.7199821472168 43.129981994628906 0.364285 7 253 253 253 253 253 253 1 -6.173487186431885 -6.527113914489746 -0.3835953176021576 1.0 1.0 0.0 48.25174331665039 48.25174331665039 0.7161448001861572 48.01499938964844 48.04600143432617 47.97100067138672 48.04600143432617 48.029998779296875 47.939998626708984 0 1
11097.431999999999 1.5707963267948972 -0.9164837042437952 1.6507530212402344 2.446536064147952 -1.5723751227008256 0.788799822330474 0.0 0.0 0.0 0.0 0.0 0.0 0.0 0.0 0.0 0.0 0.0 0.0 -4.9698346424733074e-17 -3.10307317465728 -1.062087631657945 -0.04848680224919913 -2.5561648528743482e-06 0.0 -5.634278987228951e-16 -35.273593764502415 -12.026036211963966 -0.4031401294505821 -2.1372821845480153e-05 0.0 1.5708218812942505 -0.9164598623858851 1.6507291793823242 2.4464879035949707 -1.57243520418276 0.7888118028640747 0.0 0.0 -0.0 0.0 0.0 0.0 0.24884097278118134 -3.1475019454956055 -1.0827945470809937 -0.0015250411815941334 0.010675288736820221 0.09150247275829315 0.2376319169998169 -3.1519856452941895 -1.0940035581588745 0.0 0.007625205907970667 0.10065271705389023 0.11229072483218556 -0.6350400266350209 0.25428790307043586 0.7292623129634095 1.8045587059064199 -1.7299080777826652 0.0 0.0 0.0 0.0 0.0 0.0 -5.728166662594289 0.5627714970179141 -1.911085818628989 -0.5557701391636133 0.8487826025288084 0.4113708995514794 0.11227945996387118 -0.6350392248090503 0.25428985454461966 0.729239607475029 1.804616118944239 -1.7298545245799233 0.0 0.0 0.0 0.0 0.0 0.0 0 33.269981384277344 33.39998245239258 31.349990844726562 38.959983825683594 41.7199821472168 43.129981994628906 0.360348 7 253 253 253 253 253 253 1 -6.143518447875977 -6.5540852546691895 -0.3716079592704773 1.0 1.0 0.0 48.3125114440918 48.25174331665039 0.6087239384651184 48.029998779296875 48.04600143432617 47.97100067138672 48.06100082397461 48.029998779296875 47.939998626708984 0 1
11097.439999999999 1.5707963267948972 -0.9164837042437952 1.6507530212402344 2.446536064147952 -1.5723751227008256 0.788799822330474 0.0 0.0 0.0 0.0 0.0 0.0 0.0 0.0 0.0 0.0 0.0 0.0 -4.9698346424733074e-17 -3.10307317465728 -1.062087631657945 -0.04848680224919913 -2.5561648528743482e-06 0.0 -5.634278987228951e-16 -35.273593764502415 -12.026036211963966 -0.4031401294505821 -2.1372821845480153e-05 0.0 1.5707858800888062 -0.9164717833148401 1.6507654190063477 2.4464879035949707 -1.572423283253805 0.7888118028640747 0.0 0.0 -0.0 0.0 0.0 0.0 0.22642286121845245 -3.1654365062713623 -1.0940035581588745 0.0015250411815941334 0.019825534895062447 0.08997742831707001 0.2376319169998169 -3.1519856452941895 -1.0940035581588745 0.0 0.010675288736820221 0.10370279848575592 0.11226883235954636 -0.6350358515283148 0.2542818247322922 0.729297312063666 1.8045809287408323 -1.729904105695658 0.0 0.0 0.0 0.0 0.0 0.0 -5.080487370060045 0.6809911541831092 -2.3981715578460223 -0.6168949385153643 0.8391312975854405 0.27174690213931707 0.11227945996387118 -0.6350392248090503 0.25428985454461966 0.729239607475029 1.804616118944239 -1.7298545245799233 0.0 0.0 0.0 0.0 0.0 0.0 0 33.269981384277344 33.39998245239258 31.349990844726562 38.959983825683594 41.7199821472168 43.129981994628906 0.359616 7 253 253 253 253 253 253 1 -6.14052152633667 -6.5540852546691895 -0.3116711974143982 1.0 1.0 0.0 48.25174331665039 48.25174331665039 0.7161448001861572 48.029998779296875 48.04600143432617 47.97100067138672 48.06100082397461 48.029998779296875 47.939998626708984 0 1
11097.448 1.5707963267948972 -0.9164837042437952 1.6507530212402344 2.446536064147952 -1.5723751227008256 0.788799822330474 0.0 0.0 0.0 0.0 0.0 0.0 0.0 0.0 0.0 0.0 0.0 0.0 -4.9698346424733074e-17 -3.10307317465728 -1.062087631657945 -0.04848680224919913 -2.5561648528743482e-06 0.0 -5.634278987228951e-16 -35.273593764502415 -12.026036211963966 -0.4031401294505821 -2.1372821845480153e-05 0.0 1.5707979202270508 -0.9164717833148401 1.6507411003112793 2.4464879035949707 -1.572423283253805 0.7888237833976746 0.0 0.0 -0.0 0.0 0.0 0.0 0.24659916758537292 -3.1609528064727783 -1.08951997756958 0.0 0.019825534895062447 0.10217776149511337 0.2376319169998169 -3.1519856452941895 -1.0940035581588745 0.0 0.010675288736820221 0.10065271705389023 0.11227649075101041 -0.6350386877663194 0.25429097591566435 0.7292844176325806 1.8045497961493384 -1.7299077097185764 0.0 0.0 0.0 0.0 0.0 0.0 -5.530638420924099 0.5711938749466707 -2.2546649911210195 -0.6011260479732435 0.9536164363639651 0.3134834098105835 0.11227945996387118 -0.6350392248090503 0.25428985454461966 0.729239607475029 1.804616118944239 -1.7298545245799233 0.0 0.0 0.0 0.0 0.0 0.0 0 33.269981384277344 33.39998245239258 31.349990844726562 38.959983825683594 41.7199821472168 43.129981994628906 0.360252 7 253 253 253 253 253 253 1 -6.14951229095459 -6.542098045349121 -0.31766486167907715 1.0 1.0 0.0 48.25174331665039 48.25174331665039 0.7161448001861572 48.029998779296875 48.04600143432617 47.97100067138672 48.06100082397461 48.029998779296875 47.939998626708984 0 1
11097.456 1.5707963267948972 -0.9164837042437952 1.6507530212402344 2.446536064147952 -1.5723751227008256 0.788799822330474 0.0 0.0 0.0 0.0 0.0 0.0 0.0 0.0 0.0 0.0 0.0 0.0 -4.9698346424733074e-17 -3.10307317465728 -1.062087631657945 -0.04848680224919913 -2.5561648528743482e-06 0.0 -5.634278987228951e-16 -35.273593764502415 -12.026036211963966 -0.4031401294505821 -2.1372821845480153e-05 0.0 1.5708338022232056 -0.9164598623858851 1.650705337524414 2.446500301361084 -1.572423283253805 0.7888357639312744 0.0 0.0 -0.0 0.0 0.0 0.0 0.21969743072986603 -3.1430184841156006 -1.0917617082595825 0.0015250411815941334 0.02592569962143898 0.10217776149511337 0.2376319169998169 -3.1519856452941895 -1.0940035581588745 0.0 0.015250411815941334 0.10370279848575592 0.11229929378537558 -0.6350439210822576 0.254295792763138 0.7292524595126643 1.8045331364891226 -1.7298861051648193 0.0 0.0 0.0 0.0 0.0 0.0 -4.911892180577137 1.088730606154499 -1.935638530687561 -0.5416298908397645 0.9583420707614142 0.20440078038052123 0.11227945996387118 -0.6350392248090503 0.25428985454461966 0.729239607475029 1.804616118944239 -1.7298545245799233 0.0 0.0 0.0 0.0 0.0 0.0 0 33.269981384277344 33.39998245239258 31.349990844726562 38.959983825683594 41.7199821472168 43.129981994628906 0.407892 7 253 253 253 253 253 253 1 -6.143518447875977 -6.584053993225098 -0.3566237688064575 1.0 1.0 0.0 48.3125114440918 48.25174331665039 0.7877604365348816 48.029998779296875 48.04600143432617 47.986000061035156 48.06100082397461 48.029998779296875 47.939998626708984 0 1
11097.464 1.5707963267948972 -0.9164837042437952 1.6507530212402344 2.446536064147952 -1.5723751227008256 0.788799822330474 0.0 0.0 0.0 0.0 0.0 0.0 0.0 0.0 0.0 0.0 0.0 0.0 -4.9698346424733074e-17 -3.10307317465728 -1.062087631657945 -0.04848680224919913 -2.5561648528743482e-06 0.0 -5.634278987228951e-16 -35.273593764502415 -12.026036211963966 -0.4031401294505821 -2.1372821845480153e-05 0.0 1.5707858800888062 -0.9164717833148401 1.6507411003112793 2.446500301361084 -1.5724108854876917 0.7888237833976746 0.0 0.0 -0.0 0.0 0.0 0.0 0.23314829170703888 -3.1699202060699463 -1.08951997756958 -0.0015250411815941334 0.019825534895062447 0.11132800579071045 0.2376319169998169 -3.1519856452941895 -1.0940035581588745 0.0 0.015250411815941334 0.10065271705389023 0.11226987046605838 -0.6350411665948548 0.2542898932719609 0.7292895904373323 1.804561992510899 -1.7298975216193602 0.0 0.0 0.0 0.0 0.0 0.0 -5.18317931574213 0.3518382249171296 -2.410173762628104 -0.6217175710323122 1.041359025990526 0.28845294039891645 0.11227945996387118 -0.6350392248090503 0.25428985454461966 0.729239607475029 1.804616118944239 -1.7298545245799233 0.0 0.0 0.0 0.0 0.0 0.0 0 33.269981384277344 33.39998245239258 31.349990844726562 38.959983825683594 41.7199821472168 43.129981994628906 0.365544 7 253 253 253 253 253 253 1 -6.161499500274658 -6.551088809967041 -0.3746047914028168 1.0 1.0 0.0 48.3125114440918 48.25174331665039 0.6087239384651184 48.029998779296875 48.04600143432617 47.986000061035156 48.06100082397461 48.029998779296875 47.939998626708984 0 1
11097.472 1.5707963267948972 -0.9164837042437952 1.6507530212402344 2.446536064147952 -1.5723751227008256 0.788799822330474 0.0 0.0 0.0 0.0 0.0 0.0 0.0 0.0 0.0 0.0 0.0 0.0 -4.9698346424733074e-17 -3.10307317465728 -1.062087631657945 -0.04848680224919913 -2.5561648528743482e-06 0.0 -5.634278987228951e-16 -35.273593764502415 -12.026036211963966 -0.4031401294505821 -2.1372821845480153e-05 0.0 1.5707858800888062 -0.9164956251727503 1.6507654190063477 2.4464759826660156 -1.572423283253805 0.7888118028640747 0.0 0.0 -0.0 0.0 0.0 0.0 0.22866468131542206 -3.1519856452941895 -1.098487138748169 0.0030500823631882668 0.015250411815941334 0.11590313166379929 0.2376319169998169 -3.1519856452941895 -1.0940035581588745 0.0 0.013725370168685913 0.10522784292697906 0.11226883729682817 -0.6350308245187873 0.25429799458006175 0.7292826426390834 1.8045454664471292 -1.7299319275836191 0.0 0.0 0.0 0.0 0.0 0.0 -5.329763680872342 1.1932650564019005 -2.183423906563085 -0.567452175638613 1.0832009763886778 0.3440110361049519 0.11227945996387118 -0.6350392248090503 0.25428985454461966 0.729239607475029 1.804616118944239 -1.7298545245799233 0.0 0.0 0.0 0.0 0.0 0.0 0 33.269981384277344 33.39998245239258 31.349990844726562 38.959983825683594 41.7199821472168 43.129981994628906 0.357013 7 253 253 253 253 253 253 1 -6.134528160095215 -6.551088809967041 -0.3446364104747772 1.0 1.0 0.0 48.3125114440918 48.25174331665039 0.6445291042327881 48.029998779296875 48.04600143432617 47.986000061035156 48.06100082397461 48.029998779296875 47.92499923706055 0 1
11097.48 1.5707963267948972 -0.9164837042437952 1.6507530212402344 2.446536064147952 -1.5723751227008256 0.788799822330474 0.0 0.0 0.0 0.0 0.0 0.0 0.0 0.0 0.0 0.0 0.0 0.0 -4.9698346424733074e-17 -3.10307317465728 -1.062087631657945 -0.04848680224919913 -2.5561648528743482e-06 0.0 -5.634278987228951e-16 -35.273593764502415 -12.026036211963966 -0.4031401294505821 -2.1372821845480153e-05 0.0 1.5708218812942505 -0.9164956251727503 1.6507530212402344 2.4464879035949707 -1.5723989645587366 0.788787841796875 0.0 0.0 -0.0 0.0 0.0 0.0 0.24435734748840332 -3.1609528064727783 -1.08951997756958 0.0 0.012200329452753067 0.10522784292697906 0.2376319169998169 -3.1519856452941895 -1.0940035581588745 0.0 0.010675288736820221 0.10370279848575592 0.1122937166922684 -0.6350299910288629 0.2543016069124593 0.7292029300213047 1.8045647232865294 -1.7299082856217016 0.0 0.0 0.0 0.0 0.0 0.0 -5.61030022596989 0.5702673308413456 -2.2535353096711006 -0.6005329859247643 0.9795339620796427 0.3926132211952349 0.11227945996387118 -0.6350392248090503 0.25428985454461966 0.729239607475029 1.804616118944239 -1.7298545245799233 0.0 0.0 0.0 0.0 0.0 0.0 0 33.269981384277344 33.39998245239258 31.349990844726562 38.959983825683594 41.7199821472168 43.129981994628906 0.3588 7 253 253 253 253 253 253 1 -6.125537395477295 -6.548091888427734 -0.31466802954673767 1.0 1.0 0.0 48.25174331665039 48.25174331665039 0.537108302116394 48.029998779296875 48.04600143432617 47.986000061035156 48.06100082397461 48.029998779296875 47.92499923706055 0 1
11097.488 1.5707963267948972 -0.9164837042437952 1.6507530212402344 2.446536064147952 -1.5723751227008256 0.788799822330474 0.0 0.0 0.0 0.0 0.0 0.0 0.0 0.0 0.0 0.0 0.0 0.0 -4.9698346424733074e-17 -3.10307317465728 -1.062087631657945 -0.04848680224919913 -2.5561648528743482e-06 0.0 -5.634278987228951e-16 -35.273593764502415 -12.026036211963966 -0.4031401294505821 -2.1372821845480153e-05 0.0 1.570773959159851 -0.9164355436908167 1.6507172584533691 2.4464879035949707 -1.5724471251117151 0.7887998223304749 0.0 0.0 -0.0 0.0 0.0 0.0 0.23314829170703888 -3.1542274951934814 -1.102970838546753 0.0 0.0091502470895648 0.10827792435884476 0.2376319169998169 -3.1519856452941895 -1.0940035581588745 0.0 0.010675288736820221 0.10370279848575592 0.11225930697143056 -0.6350514818060013 0.25427695697100916 0.7293187189936643 1.8045748958184906 -1.7299448693448034 0.0 0.0 0.0 0.0 0.0 0.0 -5.548740485625788 1.2848006910505176 -2.192772134794699 -0.5297999657160068 1.0083048728911035 0.4159265653760302 0.11227945996387118 -0.6350392248090503 0.25428985454461966 0.729239607475029 1.804616118944239 -1.7298545245799233 0.0 0.0 0.0 0.0 0.0 0.0 0 33.269981384277344 33.39998245239258 31.349990844726562 38.959983825683594 41.7199821472168 43.129981994628906 0.360348 7 253 253 253 253 253 253 1 -6.161499500274658 -6.563076019287109 -0.32665538787841797 1.0 1.0 0.0 48.3125114440918 48.25174331665039 0.7161448001861572 48.029998779296875 48.04600143432617 47.986000061035156 48.06100082397461 48.01499938964844 47.92499923706055 0 1
11097.496 1.5707963267948972 -0.9164837042437952 1.6507530212402344 2.446536064147952 -1.5723751227008256 0.788799822330474 0.0 0.0 0.0 0.0 0.0 0.0 0.0 0.0 0.0 0.0 0.0 0.0 -4.9698346424733074e-17 -3.10307317465728 -1.062087631657945 -0.04848680224919913 -2.5561648528743482e-06 0.0 -5.634278987228951e-16 -35.273593764502415 -12.026036211963966 -0.4031401294505821 -2.1372821845480153e-05 0.0 1.5708098411560059 -0.9164837042437952 1.6507530212402344 2.4464879035949707 -1.572423283253805 0.7887998223304749 0.0 0.0 -0.0 0.0 0.0 0.0 0.2398737221956253 -3.1497437953948975 -1.087278127670288 0.0015250411815941334 0.0091502470895648 0.10522784292697906 0.2376319169998169 -3.1519856452941895 -1.0940035581588745 0.0 0.0091502470895648 0.10370279848575592 0.11228405764074308 -0.6350333294507929 0.25429406027537754 0.7292534888914413 1.8045664349036403 -1.7299154434133974 0.0 0.0 0.0 0.0 0.0 0.0 -5.594552634777809 0.7475551136309405 -2.0422026632486325 -0.5799308742679976 0.9786914746490475 0.41972257033276206 0.11227945996387118 -0.6350392248090503 0.25428985454461966 0.729239607475029 1.804616118944239 -1.7298545245799233 0.0 0.0 0.0 0.0 0.0 0.0 0 33.269981384277344 33.39998245239258 31.349990844726562 38.959983825683594 41.7199821472168 43.129981994628906 0.358392 7 253 253 253 253 253 253 1 -6.158502578735352 -6.572066307067871 -0.3356458842754364 1.0 1.0 0.0 48.25174331665039 48.25174331665039 0.5729187726974487 48.029998779296875 48.04600143432617 47.986000061035156 48.06100082397461 48.01499938964844 47.92499923706055 0 1
11097.503999999999 1.5707963267948972 -0.9164837042437952 1.6507530212402344 2.446536064147952 -1.5723751227008256 0.788799822330474 0.0 0.0 0.0 0.0 0.0 0.0 0.0 0.0 0.0 0.0 0.0 0.0 -4.9698346424733074e-17 -3.10307317465728 -1.062087631657945 -0.04848680224919913 -2.5561648528743482e-06 0.0 -5.634278987228951e-16 -35.273593764502415 -12.026036211963966 -0.4031401294505821 -2.1372821845480153e-05 0.0 1.5708218812942505 -0.9164598623858851 1.6507530212402344 2.4464879035949707 -1.57243520418276 0.7888357639312744 0.0 0.0 -0.0 0.0 0.0 0.0 0.2398737221956253 -3.1497437953948975 -1.085036277770996 0.0 0.012200329452753067 0.10217776149511337 0.2376319169998169 -3.1519856452941895 -1.0940035581588745 0.0 0.010675288736820221 0.10370279848575592 0.11229071249831035 -0.6350359207393704 0.2542789313208301 0.7292908519056218 1.804566484446512 -1.7298740575957274 0.0 0.0 0.0 0.0 0.0 0.0 -5.517296672646778 0.6314758581012916 -2.0009595069201658 -0.5729046310860736 0.9511470344882061 0.3837064038254631 0.11227945996387118 -0.6350392248090503 0.25428985454461966 0.729239607475029 1.804616118944239 -1.7298545245799233 0.0 0.0 0.0 0.0 0.0 0.0 0 33.269981384277344 33.39998245239258 31.349990844726562 38.959983825683594 41.7199821472168 43.129981994628906 0.356484 7 253 253 253 253 253 253 1 -6.146515369415283 -6.545094966888428 -0.33864274621009827 1.0 1.0 0.0 48.3125114440918 48.25174331665039 0.5729187726974487 48.029998779296875 48.04600143432617 47.986000061035156 48.06100082397461 48.01499938964844 47.92499923706055 0 1
11097.511999999999 1.5707963267948972 -0.9164837042437952 1.6507530212402344 2.446536064147952 -1.5723751227008256 0.788799822330474 0.0 0.0 0.0 0.0 0.0 0.0 0.0 0.0 0.0 0.0 0.0 0.0 -4.9698346424733074e-17 -3.10307317465728 -1.062087631657945 -0.04848680224919913 -2.5561648528743482e-06 0.0 -5.634278987228951e-16 -35.273593764502415 -12.026036211963966 -0.4031401294505821 -2.1372821845480153e-05 0.0 1.5707979202270508 -0.9164717833148401 1.6507530212402344 2.446500301361084 -1.572423283253805 0.7888237833976746 0.0 0.0 -0.0 0.0 0.0 0.0 0.215213805437088 -3.1519856452941895 -1.0783108472824097 0.0015250411815941334 0.012200329452753067 0.12505337595939636 0.2376319169998169 -3.1519856452941895 -1.0940035581588745 0.0 0.010675288736820221 0.10370279848575592 0.11227648541070828 -0.6350377717607328 0.2542854193959106 0.7292944144086952 1.8045739380856405 -1.7298888592110477 0.0 0.0 0.0 0.0 0.0 0.0 -4.904701584932415 0.3268073509235468 -2.0437503908928663 -0.6216541544736377 1.1697250242098536 0.34236712139989955 0.11227945996387118 -0.6350392248090503 0.25428985454461966 0.729239607475029 1.804616118944239 -1.7298545245799233 0.0 0.0 0.0 0.0 0.0 0.0 0 33.269981384277344 33.39998245239258 31.349990844726562 38.959983825683594 41.7199821472168 43.129981994628906 0.364945 7 253 253 253 253 253 253 1 -6.158502578735352 -6.542098045349121 -0.31466802954673767 1.0 1.0 0.0 48.3125114440918 48.25174331665039 0.5729187726974487 48.04600143432617 48.04600143432617 47.986000061035156 48.06100082397461 48.01499938964844 47.92499923706055 0 1
11097.519999999999 1.5707963267948972 -0.9164837042437952 1.6507530212402344 2.446536064147952 -1.5723751227008256 0.788799822330474 0.0 0.0 0.0 0.0 0.0 0.0 0.0 0.0 0.0 0.0 0.0 0.0 -4.9698346424733074e-17 -3.10307317465728 -1.062087631657945 -0.04848680224919913 -2.5561648528743482e-06 0.0 -5.634278987228951e-16 -35.273593764502415 -12.026036211963966 -0.4031401294505821 -2.1372821845480153e-05 0.0 1.5708338022232056 -0.9164837042437952 1.6507773399353027 2.4464759826660156 -1.5723989645587366 0.7888118028640747 0.0 0.0 -0.0 0.0 0.0 0.0 0.22866468131542206 -3.1542274951934814 -1.0917617082595825 0.0 0.010675288736820221 0.12200329452753067 0.2376319169998169 -3.1519856452941895 -1.0940035581588745 0.0 0.010675288736820221 0.10370279848575592 0.11230127067258565 -0.6350253381331074 0.2542859149615229 0.7292194546724758 1.804573724002468 -1.7298660740623442 0.0 0.0 0.0 0.0 0.0 0.0 -5.335799184510934 0.8170427063164348 -2.133676724715419 -0.5693754693607831 1.1393378845133275 0.3900260390607348 0.11227945996387118 -0.6350392248090503 0.25428985454461966 0.729239607475029 1.804616118944239 -1.7298545245799233 0.0 0.0 0.0 0.0 0.0 0.0 0 33.269981384277344 33.39998245239258 31.349990844726562 38.959983825683594 41.7199821472168 43.129981994628906 0.363744 7 253 253 253 253 253 253 1 -6.1375250816345215 -6.590047359466553 -0.3326490521430969 1.0 1.0 0.0 48.25174331665039 48.25174331665039 0.6087239384651184 48.04600143432617 48.04600143432617 47.986000061035156 48.06100082397461 48.01499938964844 47.92499923706055 0 1
11097.528 1.5707963267948972 -0.9164837042437952 1.6507530212402344 2.446536064147952 -1.5723751227008256 0.788799822330474 0.0 0.0 0.0 0.0 0.0 0.0 0.0 0.0 0.0 0.0 0.0 0.0 -4.9698346424733074e-17 -3.10307317465728 -1.062087631657945 -0.04848680224919913 -2.5561648528743482e-06 0.0 -5.634278987228951e-16 -35.273593764502415 -12.026036211963966 -0.4031401294505821 -2.1372821845480153e-05 0.0 1.5708458423614502 -0.91644794145693 1.6507773399353027 2.4464879035949707 -1.5724471251117151 0.7888118028640747 0.0 0.0 -0.0 0.0 0.0 0.0 0.23090648651123047 -3.1452600955963135 -1.0962454080581665 -0.0045751235447824 0.013725370168685913 0.10675287991762161 0.2376319169998169 -3.1519856452941895 -1.0940035581588745 0.0 0.010675288736820221 0.10370279848575592 0.11230492771261735 -0.6350310178723633 0.25426222155566897 0.7292742287451773 1.8046191578696775 -1.7298537737106867 0.0 0.0 0.0 0.0 0.0 0.0 -5.388290888086758 1.1361617001453055 -1.887921181549672 -0.47500198578679065 0.9964467052176755 0.35905270205723294 0.11227945996387118 -0.6350392248090503 0.25428985454461966 0.729239607475029 1.804616118944239 -1.7298545245799233 0.0 0.0 0.0 0.0 0.0 0.0 0 33.269981384277344 33.39998245239258 31.349990844726562 38.959983825683594 41.7199821472168 43.129981994628906 0.35832 7 253 253 253 253 253 253 1 -6.101562976837158 -6.575063228607178 -0.3686111271381378 1.0 1.0 0.0 48.3125114440918 48.25174331665039 0.5729187726974487 48.04600143432617 48.04600143432617 47.986000061035156 48.06100082397461 48.01499938964844 47.92499923706055 0 1
11097.536 1.5707963267948972 -0.9164837042437952 1.6507530212402344 2.446536064147952 -1.5723751227008256 0.788799822330474 0.0 0.0 0.0 0.0 0.0 0.0 0.0 0.0 0.0 0.0 0.0 0.0 -4.9698346424733074e-17 -3.10307317465728 -1.062087631657945 -0.04848680224919913 -2.5561648528743482e-06 0.0 -5.634278987228951e-16 -35.273593764502415 -12.026036211963966 -0.4031401294505821 -2.1372821845480153e-05 0.0 1.5708218812942505 -0.9164717833148401 1.6507773399353027 2.4464521408081055 -1.57243520418276 0.7888477444648743 0.0 0.0 -0.0 0.0 0.0 0.0 0.23090648651123047 -3.1631946563720703 -1.0940035581588745 0.0030500823631882668 0.013725370168685913 0.10522784292697906 0.2376319169998169 -3.1519856452941895 -1.0940035581588745 0.0 0.010675288736820221 0.10370279848575592 0.11229070036025365 -0.6350264862316133 0.254280438822019 0.7292905945335442 1.8045352292112278 -1.7298841664211502 0.0 0.0 0.0 0.0 0.0 0.0 -5.312297454759006 0.7538005071769526 -2.3828883300697266 -0.6237733944089087 0.98084146710958 0.3537222120377451 0.11227945996387118 -0.6350392248090503 0.25428985454461966 0.729239607475029 1.804616118944239 -1.7298545245799233 0.0 0.0 0.0 0.0 0.0 0.0 0 33.269981384277344 33.39998245239258 31.349990844726562 38.959983825683594 41.7199821472168 43.129981994628906 0.35904 7 253 253 253 253 253 253 1 -6.125537395477295 -6.575063228607178 -0.3206616938114166 1.0 1.0 0.0 48.25174331665039 48.25174331665039 0.5729187726974487 48.04600143432617 48.04600143432617 47.986000061035156 48.06100082397461 48.01499938964844 47.92499923706055 0 1
11097.544 1.5707963267948972 -0.9164837042437952 1.6507530212402344 2.446536064147952 -1.5723751227008256 0.788799822330474 0.0 0.0 0.0 0.0 0.0 0.0 0.0 0.0 0.0 0.0 0.0 0.0 -4.9698346424733074e-17 -3.10307317465728 -1.062087631657945 -0.04848680224919913 -2.5561648528743482e-06 0.0 -5.634278987228951e-16 -35.273593764502415 -12.026036211963966 -0.4031401294505821 -2.1372821845480153e-05 0.0 1.5708218812942505 -0.9165318647967737 1.6507291793823242 2.446524143218994 -1.5724471251117151 0.7888477444648743 0.0 0.0 -0.0 0.0 0.0 0.0 0.25780820846557617 -3.1362929344177246 -1.098487138748169 0.0015250411815941334 0.016775453463196754 0.0930275097489357 0.2376319169998169 -3.1519856452941895 -1.0940035581588745 0.0 0.016775453463196754 0.10370279848575592 0.11228975839199848 -0.6350314780558891 0.2543305097019905 0.7292876766727343 1.8044991771969632 -1.7299215781471644 0.0 0.0 0.0 0.0 0.0 0.0 -6.0230418038767235 1.5149787392990344 -1.830657211247266 -0.4904494985384588 0.8651837435308695 0.377670644328959 0.11227945996387118 -0.6350392248090503 0.25428985454461966 0.729239607475029 1.804616118944239 -1.7298545245799233 0.0 0.0 0.0 0.0 0.0 0.0 0 33.269981384277344 33.39998245239258 31.349990844726562 38.959983825683594 41.7199821472168 43.129981994628906 0.358032 7 253 253 253 253 253 253 1 -6.14951229095459 -6.578060150146484 -0.3746047914028168 1.0 1.0 0.0 48.25174331665039 48.25174331665039 0.5729187726974487 48.04600143432617 48.04600143432617 47.986000061035156 48.06100082397461 48.01499938964844 47.92499923706055 0 1
11097.552 1.5707963267948972 -0.9164837042437952 1.6507530212402344 2.446536064147952 -1.5723751227008256 0.788799822330474 0.0 0.0 0.0 0.0 0.0 0.0 0.0 0.0 0.0 0.0 0.0 0.0 -4.9698346424733074e-17 -3.10307317465728 -1.062087631657945 -0.04848680224919913 -2.5561648528743482e-06 0.0 -5.634278987228951e-16 -35.273593764502415 -12.026036211963966 -0.4031401294505821 -2.1372821845480153e-05 0.0 1.5707979202270508 -0.9164598623858851 1.6507411003112793 2.4464640617370605 -1.5724590460406702 0.7887998223304749 0.0 0.0 -0.0 0.0 0.0 0.0 0.24435734748840332 -3.1542274951934814 -1.102970838546753 -0.0015250411815941334 0.013725370168685913 0.10065271705389023 0.2376319169998169 -3.1519856452941895 -1.0940035581588745 0.0 0.010675288736820221 0.10370279848575592 0.11227352996263601 -0.6350384966850816 0.25428549917893317 0.7292960080827344 1.8045516832850175 -1.729956268921832 0.0 0.0 0.0 0.0 0.0 0.0 -5.7190871450059095 1.261469027954854 -2.162907645426043 -0.5147004080184686 0.9371967062206817 0.3841526793851963 0.11227945996387118 -0.6350392248090503 0.25428985454461966 0.729239607475029 1.804616118944239 -1.7298545245799233 0.0 0.0 0.0 0.0 0.0 0.0 0 33.269981384277344 33.39998245239258 31.349990844726562 38.959983825683594 41.7199821472168 43.129981994628906 0.362064 7 253 253 253 253 253 253 1 -6.164496421813965 -6.5540852546691895 -0.359620600938797 1.0 1.0 0.0 48.25174331665039 48.25174331665039 0.7161448001861572 48.04600143432617 48.04600143432617 47.986000061035156 48.06100082397461 48.01499938964844 47.95500183105469 0 1
11097.56 1.5707963267948972 -0.9164837042437952 1.6507530212402344 2.446536064147952 -1.5723751227008256 0.788799822330474 0.0 0.0 0.0 0.0 0.0 0.0 0.0 0.0 0.0 0.0 0.0 0.0 -4.9698346424733074e-17 -3.10307317465728 -1.062087631657945 -0.04848680224919913 -2.5561648528743482e-06 0.0 -5.634278987228951e-16 -35.273593764502415 -12.026036211963966 -0.4031401294505821 -2.1372821845480153e-05 0.0 1.5707979202270508 -0.9164956251727503 1.6507773399353027 2.446500301361084 -1.57243520418276 0.7888237833976746 0.0 0.0 -0.0 0.0 0.0 0.0 0.2398737221956253 -3.1631946563720703 -1.0783108472824097 0.0015250411815941334 0.015250411815941334 0.10370279848575592 0.2376319169998169 -3.1519856452941895 -1.0940035581588745 0.0 0.015250411815941334 0.10370279848575592 0.11227549306185297 -0.6350296594432444 0.25429142019421525 0.7293063945996876 1.8045737513038302 -1.7298965650750164 0.0 0.0 0.0 0.0 0.0 0.0 -5.355425056031247 0.07328838553784356 -2.265972385158709 -0.6618142152378751 0.966404771429288 0.34355896523398327 0.11227945996387118 -0.6350392248090503 0.25428985454461966 0.729239607475029 1.804616118944239 -1.7298545245799233 0.0 0.0 0.0 0.0 0.0 0.0 0 33.269981384277344 33.39998245239258 31.349990844726562 38.959983825683594 41.7199821472168 43.129981994628906 0.409501 7 253 253 253 253 253 253 1 -6.125537395477295 -6.593044281005859 -0.3626174330711365 1.0 1.0 0.0 48.3125114440918 48.25174331665039 0.6445291042327881 48.04600143432617 48.04600143432617 47.986000061035156 48.06100082397461 48.029998779296875 47.95500183105469 0 1
11097.568 1.5707963267948972 -0.9164837042437952 1.6507530212402344 2.446536064147952 -1.5723751227008256 0.788799822330474 0.0 0.0 0.0 0.0 0.0 0.0 0.0 0.0 0.0 0.0 0.0 0.0 -4.9698346424733074e-17 -3.10307317465728 -1.062087631657945 -0.04848680224919913 -2.5561648528743482e-06 0.0 -5.634278987228951e-16 -35.273593764502415 -12.026036211963966 -0.4031401294505821 -2.1372821845480153e-05 0.0 1.5708218812942505 -0.9164598623858851 1.6507530212402344 2.446512222290039 -1.57243520418276 0.7887998223304749 0.0 0.0 -0.0 0.0 0.0 0.0 0.22642286121845245 -3.1542274951934814 -1.0962454080581665 0.0030500823631882668 0.010675288736820221 0.09150247275829315 0.2376319169998169 -3.1519856452941895 -1.0940035581588745 0.0 0.010675288736820221 0.10217776149511337 0.11229071407642514 -0.6350381508058115 0.2542768311935221 0.7292727284488445 1.8046144213718718 -1.7298784309562807 0.0 0.0 0.0 0.0 0.0 0.0 -5.30973148748019 1.0448984833985155 -2.210380089843746 -0.5804934151120148 0.8498898944664384 0.3764590288883553 0.11227945996387118 -0.6350392248090503 0.25428985454461966 0.729239607475029 1.804616118944239 -1.7298545245799233 0.0 0.0 0.0 0.0 0.0 0.0 0 33.269981384277344 33.39998245239258 31.349990844726562 38.959983825683594 41.7199821472168 43.129981994628906 0.36624 7 253 253 253 253 253 253 1 -6.155506134033203 -6.5391011238098145 -0.3476332426071167 1.0 1.0 0.0 48.3125114440918 48.25174331665039 0.5729187726974487 48.04600143432617 48.04600143432617 47.986000061035156 48.06100082397461 48.029998779296875 47.95500183105469 0 1
11097.576 1.5707963267948972 -0.9164837042437952 1.6507530212402344 2.446536064147952 -1.5723751227008256 0.788799822330474 0.0 0.0 0.0 0.0 0.0 0.0 0.0 0.0 0.0 0.0 0.0 0.0 -4.9698346424733074e-17 -3.10307317465728 -1.062087631657945 -0.04848680224919913 -2.5561648528743482e-06 0.0 -5.634278987228951e-16 -35.273593764502415 -12.026036211963966 -0.4031401294505821 -2.1372821845480153e-05 0.0 1.5707858800888062 -0.9164355436908167 1.6507530212402344 2.4464879035949707 -1.5724108854876917 0.7888237833976746 0.0 0.0 -0.0 0.0 0.0 0.0 0.24435734748840332 -3.1542274951934814 -1.098487138748169 0.0 0.007625205907970667 0.10370279848575592 0.2376319169998169 -3.1519856452941895 -1.0940035581588745 0.0 0.0091502470895648 0.10370279848575592 0.11226985498786422 -0.6350439555934762 0.2542634643110274 0.7293042055272367 1.8045972973699056 -1.7298693634881286 0.0 0.0 0.0 0.0 0.0 0.0 -5.791671643099991 1.0951315450515708 -2.1658036112538817 -0.5440104149163348 0.9633796479939944 0.4489575670940062 0.11227945996387118 -0.6350392248090503 0.25428985454461966 0.729239607475029 1.804616118944239 -1.7298545245799233 0.0 0.0 0.0 0.0 0.0 0.0 0 33.269981384277344 33.39998245239258 31.349990844726562 38.959983825683594 41.7199821472168 43.129981994628906 0.358812 7 253 253 253 253 253 253 1 -6.125537395477295 -6.569069862365723 -0.3326490521430969 1.0 1.0 0.0 48.3125114440918 48.25174331665039 0.7519552707672119 48.04600143432617 48.04600143432617 47.986000061035156 48.04600143432617 48.029998779296875 47.95500183105469 0 1
11097.583999999999 1.5707963267948972 -0.9164837042437952 1.6507530212402344 2.446536064147952 -1.5723751227008256 0.788799822330474 0.0 0.0 0.0 0.0 0.0 0.0 0.0 0.0 0.0 0.0 0.0 0.0 -4.9698346424733074e-17 -3.10307317465728 -1.062087631657945 -0.04848680224919913 -2.5561648528743482e-06 0.0 -5.634278987228951e-16 -35.273593764502415 -12.026036211963966 -0.4031401294505821 -2.1372821845480153e-05 0.0 1.570773959159851 -0.9164355436908167 1.6507530212402344 2.4464879035949707 -1.572423283253805 0.7888237833976746 0.0 0.0 -0.0 0.0 0.0 0.0 0.22418105602264404 -3.1295676231384277 -1.0917617082595825 0.0 0.015250411815941334 0.1098029613494873 0.2376319169998169 -3.1519856452941895 -1.0940035581588745 0.0 0.015250411815941334 0.10370279848575592 0.1122612597528602 -0.6350453037760886 0.2542634763349691 0.7293286190575728 1.804595785404409 -1.7298853990384453 0.0 0.0 0.0 0.0 0.0 0.0 -5.256146194263626 1.36515200887236 -1.632774686538958 -0.47518087412171184 1.0263870563603579 0.33504251241087557 0.11227945996387118 -0.6350392248090503 0.25428985454461966 0.729239607475029 1.804616118944239 -1.7298545245799233 0.0 0.0 0.0 0.0 0.0 0.0 0 33.269981384277344 33.39998245239258 31.349990844726562 38.959983825683594 41.7199821472168 43.129981994628906 0.357228 7 253 253 253 253 253 253 1 -6.164496421813965 -6.533107757568359 -0.3626174330711365 1.0 1.0 0.0 48.25174331665039 48.25174331665039 0.6445291042327881 48.04600143432617 48.04600143432617 47.986000061035156 48.04600143432617 48.029998779296875 47.95500183105469 0 1
11097.591999999999 1.5707963267948972 -0.9164837042437952 1.6507530212402344 2.446536064147952 -1.5723751227008256 0.788799822330474 0.0 0.0 0.0 0.0 0.0 0.0 0.0 0.0 0.0 0.0 0.0 0.0 -4.9698346424733074e-17 -3.10307317465728 -1.062087631657945 -0.04848680224919913 -2.5561648528743482e-06 0.0 -5.634278987228951e-16 -35.273593764502415 -12.026036211963966 -0.4031401294505821 -2.1372821845480153e-05 0.0 1.5707858800888062 -0.9164956251727503 1.6507411003112793 2.4464879035949707 -1.57243520418276 0.7888357639312744 0.0 0.0 -0.0 0.0 0.0 0.0 0.23539011180400848 -3.1362929344177246 -1.102970838546753 -0.0045751235447824 0.007625205907970667 0.0930275097489357 0.2376319169998169 -3.1519856452941895 -1.0940035581588745 0.0 0.010675288736820221 0.10370279848575592 0.11226786496786897 -0.6350361150158552 0.2543061279970734 0.7293081035754057 1.8045168054967096 -1.729934471144604 0.0 0.0 0.0 0.0 0.0 0.0 -5.680938399416646 1.6144066743480705 -1.7392533712981901 -0.4159369357740459 0.8636779456493306 0.43428052446490045 0.11227945996387118 -0.6350392248090503 0.25428985454461966 0.729239607475029 1.804616118944239 -1.7298545245799233 0.0 0.0 0.0 0.0 0.0 0.0 0 33.269981384277344 33.39998245239258 31.349990844726562 38.959983825683594 41.7199821472168 43.129981994628906 0.358572 7 253 253 253 253 253 253 1 -6.14951229095459 -6.587050437927246 -0.33864274621009827 1.0 1.0 0.0 48.3125114440918 48.25174331665039 0.7877604365348816 48.04600143432617 48.04600143432617 47.986000061035156 48.04600143432617 48.029998779296875 47.95500183105469 0 1
11097.6 1.5707963267948972 -0.9164837042437952 1.6507530212402344 2.446536064147952 -1.5723751227008256 0.788799822330474 0.0 0.0 0.0 0.0 0.0 0.0 0.0 0.0 0.0 0.0 0.0 0.0 -4.9698346424733074e-17 -3.10307317465728 -1.062087631657945 -0.04848680224919913 -2.5561648528743482e-06 0.0 -5.634278987228951e-16 -35.273593764502415 -12.026036211963966 -0.4031401294505821 -2.1372821845480153e-05 0.0 1.5707979202270508 -0.9164837042437952 1.6507172584533691 2.446500301361084 -1.5724471251117151 0.7888118028640747 0.0 0.0 -0.0 0.0 0.0 0.0 0.2376319169998169 -3.1519856452941895 -1.100728988647461 0.0030500823631882668 0.015250411815941334 0.09760263562202454 0.2376319169998169 -3.1519856452941895 -1.0940035581588745 0.0 0.015250411815941334 0.10370279848575592 0.11227453558975514 -0.6350419823302809 0.25430647063035666 0.7292890158543275 1.8045333460951345 -1.72994997099602 0.0 0.0 0.0 0.0 0.0 0.0 -5.541762331540469 1.283891717104091 -2.1917018843970664 -0.5578075336208403 0.9089609233574022 0.35453297510163734 0.11227945996387118 -0.6350392248090503 0.25428985454461966 0.729239607475029 1.804616118944239 -1.7298545245799233 0.0 0.0 0.0 0.0 0.0 0.0 0 33.269981384277344 33.39998245239258 31.349990844726562 38.959983825683594 41.7199821472168 43.129981994628906 0.358717 7 253 253 253 253 253 253 1 -6.1225409507751465 -6.572066307067871 -0.30567750334739685 1.0 1.0 0.0 48.25174331665039 48.25174331665039 0.6087239384651184 48.029998779296875 48.06100082397461 47.986000061035156 48.04600143432617 48.029998779296875 47.95500183105469 0 1
11097.608 1.5707963267948972 -0.9164837042437952 1.6507530212402344 2.446536064147952 -1.5723751227008256 0.788799822330474 0.0 0.0 0.0 0.0 0.0 0.0 0.0 0.0 0.0 0.0 0.0 0.0 -4.9698346424733074e-17 -3.10307317465728 -1.062087631657945 -0.04848680224919913 -2.5561648528743482e-06 0.0 -5.634278987228951e-16 -35.273593764502415 -12.026036211963966 -0.4031401294505821 -2.1372821845480153e-05 0.0 1.5708098411560059 -0.9164717833148401 1.6507530212402344 2.4464879035949707 -1.5724471251117151 0.7888118028640747 0.0 0.0 -0.0 0.0 0.0 0.0 0.22866468131542206 -3.1676783561706543 -1.100728988647461 -0.0030500823631882668 0.016775453463196754 0.10065271705389023 0.2376319169998169 -3.1519856452941895 -1.0940035581588745 0.0 0.012200329452753067 0.10370279848575592 0.1122820838654912 -0.635035315368625 0.2542865131537853 0.7292912769298586 1.8045690073335425 -1.7299145526601474 0.0 0.0 0.0 0.0 0.0 0.0 -5.223363776104273 0.8475210138904059 -2.3958367154874587 -0.5593901569136774 0.9394321360207792 0.3152723291035287 0.11227945996387118 -0.6350392248090503 0.25428985454461966 0.729239607475029 1.804616118944239 -1.7298545245799233 0.0 0.0 0.0 0.0 0.0 0.0 0 33.269981384277344 33.39998245239258 31.349990844726562 38.959983825683594 41.7199821472168 43.129981994628906 0.358272 7 253 253 253 253 253 253 1 -6.1375250816345215 -6.566072940826416 -0.3746047914028168 1.0 1.0 0.0 48.3125114440918 48.25174331665039 0.7519552707672119 48.029998779296875 48.06100082397461 48.029998779296875 48.04600143432617 48.029998779296875 47.95500183105469 0 1
11097.616 1.5707963267948972 -0.9164837042437952 1.6507530212402344 2.446536064147952 -1.5723751227008256 0.788799822330474 0.0 0.0 0.0 0.0 0.0 0.0 0.0 0.0 0.0 0.0 0.0 0.0 -4.9698346424733074e-17 -3.10307317465728 -1.062087631657945 -0.04848680224919913 -2.5561648528743482e-06 0.0 -5.634278987228951e-16 -35.273593764502415 -12.026036211963966 -0.4031401294505821 -2.1372821845480153e-05 0.0 1.5708098411560059 -0.9164717833148401 1.6507411003112793 2.4464879035949707 -1.572423283253805 0.7888118028640747 0.0 0.0 -0.0 0.0 0.0 0.0 0.23539011180400848 -3.1587109565734863 -1.087278127670288 -0.0015250411815941334 0.0091502470895648 0.10065271705389023 0.2376319169998169 -3.1519856452941895 -1.0940035581588745 0.0 0.010675288736820221 0.10370279848575592 0.11228406099411535 -0.6350373492811276 0.25429097591566435 0.7292628590029279 1.8045585291014823 -1.7299077479666718 0.0 0.0 0.0 0.0 0.0 0.0 -5.4388742756032915 0.503406484900359 -2.1655495098911084 -0.5842331833985125 0.9357264313192619 0.4052892427709861 0.11227945996387118 -0.6350392248090503 0.25428985454461966 0.729239607475029 1.804616118944239 -1.7298545245799233 0.0 0.0 0.0 0.0 0.0 0.0 0 33.269981384277344 33.39998245239258 31.349990844726562 38.959983825683594 41.7199821472168 43.129981994628906 0.370356 7 253 253 253 253 253 253 1 -6.1525092124938965 -6.560079097747803 -0.36561426520347595 1.0 1.0 0.0 48.25174331665039 48.25174331665039 0.6087239384651184 48.029998779296875 48.06100082397461 48.029998779296875 48.04600143432617 48.029998779296875 47.95500183105469 0 1
11097.624 1.5707963267948972 -0.9164837042437952 1.6507530212402344 2.446536064147952 -1.5723751227008256 0.788799822330474 0.0 0.0 0.0 0.0 0.0 0.0 0.0 0.0 0.0 0.0 0.0 0.0 -4.9698346424733074e-17 -3.10307317465728 -1.062087631657945 -0.04848680224919913 -2.5561648528743482e-06 0.0 -5.634278987228951e-16 -35.273593764502415 -12.026036211963966 -0.4031401294505821 -2.1372821845480153e-05 0.0 1.5708098411560059 -0.9164837042437952 1.6507530212402344 2.446512222290039 -1.57243520418276 0.7888717651367188 0.0 0.0 -0.0 0.0 0.0 0.0 0.24884097278118134 -3.1475019454956055 -1.100728988647461 0.0030500823631882668 0.015250411815941334 0.10827792435884476 0.2376319169998169 -3.1519856452941895 -1.0940035581588745 0.0 0.010675288736820221 0.10217776149511337 0.11228307369888103 -0.6350355690774506 0.2542919717636457 0.7293315992324074 1.8045425199789924 -1.7298586522770993 0.0 0.0 0.0 0.0 0.0 0.0 -5.827139084143083 1.3845341957200934 -2.1023390305048113 -0.5416702172708309 1.009480754390169 0.3819306381385127 0.11227945996387118 -0.6350392248090503 0.25428985454461966 0.729239607475029 1.804616118944239 -1.7298545245799233 0.0 0.0 0.0 0.0 0.0 0.0 0 33.269981384277344 33.39998245239258 31.349990844726562 38.959983825683594 41.7199821472168 43.129981994628906 0.361632 7 253 253 253 253 253 253 1 -6.158502578735352 -6.569069862365723 -0.33864274621009827 1.0 1.0 0.0 48.25174331665039 48.25174331665039 0.7519552707672119 48.029998779296875 48.06100082397461 48.029998779296875 48.04600143432617 48.029998779296875 47.95500183105469 0 1
11097.632 1.5707963267948972 -0.9164837042437952 1.6507530212402344 2.446536064147952 -1.5723751227008256 0.788799822330474 0.0 0.0 0.0 0.0 0.0 0.0 0.0 0.0 0.0 0.0 0.0 0.0 -4.9698346424733074e-17 -3.10307317465728 -1.062087631657945 -0.04848680224919913 -2.5561648528743482e-06 0.0 -5.634278987228951e-16 -35.273593764502415 -12.026036211963966 -0.4031401294505821 -2.1372821845480153e-05 0.0 1.5707858800888062 -0.9164598623858851 1.6507530212402344 2.446500301361084 -1.572423283253805 0.788787841796875 0.0 0.0 -0.0 0.0 0.0 0.0 0.22193925082683563 -3.1452600955963135 -1.0917617082595825 -0.0030500823631882668 0.013725370168685913 0.09150247275829315 0.2376319169998169 -3.1519856452941895 -1.0940035581588745 0.0 0.012200329452753067 0.10217776149511337 0.11226883662400827 -0.6350410903450855 0.2542778491122695 0.7292834528003076 1.8046086160664752 -1.7299103179481388 0.0 0.0 0.0 0.0 0.0 0.0 -5.138324727148935 0.9688012139423918 -1.8892070231417395 -0.5033544034905908 0.8522718151481653 0.33318227153153546 0.11227945996387118 -0.6350392248090503 0.25428985454461966 0.729239607475029 1.804616118944239 -1.7298545245799233 0.0 0.0 0.0 0.0 0.0 0.0 0 33.269981384277344 33.39998245239258 31.349990844726562 38.959983825683594 41.7199821472168 43.129981994628906 0.3582 7 253 253 253 253 253 253 1 -6.155506134033203 -6.557082176208496 -0.3236585259437561 1.0 1.0 0.0 48.25174331665039 48.25174331665039 0.7519552707672119 48.029998779296875 48.06100082397461 48.029998779296875 48.04600143432617 48.0 47.95500183105469 0 1
11097.64 1.5707963267948972 -0.9164837042437952 1.6507530212402344 2.446536064147952 -1.5723751227008256 0.788799822330474 0.0 0.0 0.0 0.0 0.0 0.0 0.0 0.0 0.0 0.0 0.0 0.0 -4.9698346424733074e-17 -3.10307317465728 -1.062087631657945 -0.04848680224919913 -2.5561648528743482e-06 0.0 -5.634278987228951e-16 -35.273593764502415 -12.026036211963966 -0.4031401294505821 -2.1372821845480153e-05 0.0 1.570773959159851 -0.9164837042437952 1.6507530212402344 2.4464879035949707 -1.5723989645587366 0.7888237833976746 0.0 0.0 -0.0 0.0 0.0 0.0 0.23090648651123047 -3.1452600955963135 -1.0962454080581665 -0.0015250411815941334 0.0091502470895648 0.10522784292697906 0.2376319169998169 -3.1519856452941895 -1.0940035581588745 0.0 0.010675288736820221 0.10675287991762161 0.11226328171138578 -0.635037338653183 0.25429403668949563 0.7292849071773139 1.8045494771678625 -1.7299066434693904 0.0 0.0 0.0 0.0 0.0 0.0 -5.473899633137944 1.1797146727859846 -1.9442192861402954 -0.50352035586017 0.9798144414432479 0.40860942684032747 0.11227945996387118 -0.6350392248090503 0.25428985454461966 0.729239607475029 1.804616118944239 -1.7298545245799233 0.0 0.0 0.0 0.0 0.0 0.0 0 33.269981384277344 33.39998245239258 31.349990844726562 38.959983825683594 41.7199821472168 43.129981994628906 0.359677 7 253 253 253 253 253 253 1 -6.128534317016602 -6.581057071685791 -0.3716079592704773 1.0 1.0 0.0 48.25174331665039 48.25174331665039 0.6803395748138428 48.029998779296875 48.06100082397461 48.029998779296875 48.04600143432617 48.0 47.95500183105469 0 1
11097.648 1.5707963267948972 -0.9164837042437952 1.6507530212402344 2.446536064147952 -1.5723751227008256 0.788799822330474 0.0 0.0 0.0 0.0 0.0 0.0 0.0 0.0 0.0 0.0 0.0 0.0 -4.9698346424733074e-17 -3.10307317465728 -1.062087631657945 -0.04848680224919913 -2.5561648528743482e-06 0.0 -5.634278987228951e-16 -35.273593764502415 -12.026036211963966 -0.4031401294505821 -2.1372821845480153e-05 0.0 1.5708218812942505 -0.9164956251727503 1.6507773399353027 2.4464879035949707 -1.5724108854876917 0.7888118028640747 0.0 0.0 -0.0 0.0 0.0 0.0 0.24659916758537292 -3.1564693450927734 -1.087278127670288 -0.0015250411815941334 0.016775453463196754 0.10065271705389023 0.2376319169998169 -3.1519856452941895 -1.0940035581588745 0.0 0.015250411815941334 0.10370279848575592 0.11229271861896192 -0.6350258126675068 0.2542924672409792 0.7292434290509525 1.8045723158309044 -1.7298819556750415 0.0 0.0 0.0 0.0 0.0 0.0 -5.57771398767915 0.5538545099749905 -2.12140450776761 -0.5764790887778823 0.9380944674038574 0.34524421750286666 0.11227945996387118 -0.6350392248090503 0.25428985454461966 0.729239607475029 1.804616118944239 -1.7298545245799233 0.0 0.0 0.0 0.0 0.0 0.0 0 33.269981384277344 33.39998245239258 31.349990844726562 38.959983825683594 41.7199821472168 43.129981994628906 0.360456 7 253 253 253 253 253 253 1 -6.14951229095459 -6.563076019287109 -0.32665538787841797 1.0 1.0 0.0 48.25174331665039 48.25174331665039 0.6445291042327881 48.029998779296875 48.06100082397461 48.029998779296875 48.04600143432617 48.0 47.95500183105469 0 1
11097.655999999999 1.5707963267948972 -0.9164837042437952 1.6507530212402344 2.446536064147952 -1.5723751227008256 0.788799822330474 0.0 0.0 0.0 0.0 0.0 0.0 0.0 0.0 0.0 0.0 0.0 0.0 -4.9698346424733074e-17 -3.10307317465728 -1.062087631657945 -0.04848680224919913 -2.5561648528743482e-06 0.0 -5.634278987228951e-16 -35.273593764502415 -12.026036211963966 -0.4031401294505821 -2.1372821845480153e-05 0.0 1.5708098411560059 -0.9164717833148401 1.6507411003112793 2.446500301361084 -1.572423283253805 0.788787841796875 0.0 0.0 -0.0 0.0 0.0 0.0 0.21969743072986603 -3.1497437953948975 -1.08951997756958 0.0015250411815941334 0.010675288736820221 0.10217776149511337 0.2376319169998169 -3.1407766342163086 -1.0940035581588745 0.0 0.010675288736820221 0.10370279848575592 0.11228406178512675 -0.6350384862096518 0.2542899052963918 0.7292492054892451 1.8045866878021144 -1.7299135954819005 0.0 0.0 0.0 0.0 0.0 0.0 -5.121356479698856 0.8425640316821502 -2.0556502316706617 -0.5727165955728565 0.9518726092296507 0.3650491427039599 0.11227945996387118 -0.6350392248090503 0.25428985454461966 0.729239607475029 1.804616118944239 -1.7298545245799233 0.0 0.0 0.0 0.0 0.0 0.0 0 33.269981384277344 33.39998245239258 31.349990844726562 38.959983825683594 41.7199821472168 43.129981994628906 0.417216 7 253 253 253 253 253 253 1 -6.146515369415283 -6.575063228607178 -0.35362693667411804 1.0 1.0 0.0 48.3125114440918 48.25174331665039 0.7161448001861572 48.029998779296875 48.06100082397461 48.029998779296875 48.04600143432617 48.0 47.95500183105469 0 1
11097.663999999999 1.5707963267948972 -0.9164837042437952 1.6507530212402344 2.446536064147952 -1.5723751227008256 0.788799822330474 0.0 0.0 0.0 0.0 0.0 0.0 0.0 0.0 0.0 0.0 0.0 0.0 -4.9698346424733074e-17 -3.10307317465728 -1.062087631657945 -0.04848680224919913 -2.5561648528743482e-06 0.0 -5.634278987228951e-16 -35.273593764502415 -12.026036211963966 -0.4031401294505821 -2.1372821845480153e-05 0.0 1.570773959159851 -0.9165075461017054 1.6507411003112793 2.4464879035949707 -1.5724590460406702 0.7887998223304749 0.0 0.0 -0.0 0.0 0.0 0.0 0.2376319169998169 -3.1452600955963135 -1.0940035581588745 0.0 0.010675288736820221 0.11895321309566498 0.2376319169998169 -3.1519856452941895 -1.0940035581588745 0.0 0.010675288736820221 0.10370279848575592 0.11225832661156446 -0.6350355050784618 0.25431372134826663 0.729310792049844 1.8045265836308895 -1.7299906411403798 0.0 0.0 0.0 0.0 0.0 0.0 -5.5983137877043365 1.1097746710817122 -1.9633258271031375 -0.5272039632801945 1.1100417338959225 0.4099761610332853 0.11227945996387118 -0.6350392248090503 0.25428985454461966 0.729239607475029 1.804616118944239 -1.7298545245799233 0.0 0.0 0.0 0.0 0.0 0.0 0 33.269981384277344 33.39998245239258 31.349990844726562 38.959983825683594 41.7199821472168 43.129981994628906 0.367176 7 253 253 253 253 253 253 1 -6.1375250816345215 -6.593044281005859 -0.3326490521430969 1.0 1.0 0.0 48.25174331665039 48.25174331665039 0.7161448001861572 48.029998779296875 48.06100082397461 48.029998779296875 48.04600143432617 48.0 47.95500183105469 0 1
11097.671999999999 1.5707963267948972 -0.9164837042437952 1.6507530212402344 2.446536064147952 -1.5723751227008256 0.788799822330474 0.0 0.0 0.0 0.0 0.0 0.0 0.0 0.0 0.0 0.0 0.0 0.0 -4.9698346424733074e-17 -3.10307317465728 -1.062087631657945 -0.04848680224919913 -2.5561648528743482e-06 0.0 -5.634278987228951e-16 -35.273593764502415 -12.026036211963966 -0.4031401294505821 -2.1372821845480153e-05 0.0 1.5708577632904053 -0.9164717833148401 1.6507530212402344 2.4464759826660156 -1.5724590460406702 0.7888597249984741 0.0 0.0 -0.0 0.0 0.0 0.0 0.23314829170703888 -3.113874912261963 -1.0962454080581665 0.0015250411815941334 0.013725370168685913 0.12047825008630753 0.2376319169998169 -3.1250839233398438 -1.0940035581588745 0.0 0.015250411815941334 0.10370279848575592 0.11231152967811024 -0.6350288501755958 0.2542875541583003 0.7292866939038942 1.8045281778571454 -1.7298702745510233 0.0 0.0 0.0 0.0 0.0 0.0 -5.607843408059714 1.924646964960064 -1.3699176257397916 -0.4159932645980531 1.1265852422295077 0.3814038396559563 0.11227945996387118 -0.6350392248090503 0.25428985454461966 0.729239607475029 1.804616118944239 -1.7298545245799233 0.0 0.0 0.0 0.0 0.0 0.0 0 33.269981384277344 33.39998245239258 31.349990844726562 38.959983825683594 41.7199821472168 43.129981994628906 0.359388 7 253 253 253 253 253 253 1 -6.128534317016602 -6.569069862365723 -0.3356458842754364 1.0 1.0 0.0 48.3125114440918 48.25174331665039 0.7877604365348816 48.029998779296875 48.029998779296875 48.029998779296875 48.04600143432617 48.0 47.95500183105469 0 1
11097.68 1.5707963267948972 -0.9164837042437952 1.6507530212402344 2.446536064147952 -1.5723751227008256 0.788799822330474 0.0 0.0 0.0 0.0 0.0 0.0 0.0 0.0 0.0 0.0 0.0 0.0 -4.9698346424733074e-17 -3.10307317465728 -1.062087631657945 -0.04848680224919913 -2.5561648528743482e-06 0.0 -5.634278987228951e-16 -35.273593764502415 -12.026036211963966 -0.4031401294505821 -2.1372821845480153e-05 0.0 1.5707979202270508 -0.9164837042437952 1.6507291793823242 2.446500301361084 -1.572423283253805 0.7888357639312744 0.0 0.0 -0.0 0.0 0.0 0.0 0.22866468131542206 -3.1228420734405518 -1.0940035581588745 0.0030500823631882668 0.012200329452753067 0.09912768006324768 0.2376319169998169 -3.1273257732391357 -1.0940035581588745 0.0 0.013725370168685913 0.10370279848575592 0.11227650045857901 -0.6350399105722894 0.2543019615304844 0.7292891364586805 1.8045306468473261 -1.7299091460174842 0.0 0.0 0.0 0.0 0.0 0.0 -5.461412329249083 1.6503924665692657 -1.5636017865938394 -0.46987614714722303 0.9233894142640324 0.37632779845456826 0.11227945996387118 -0.6350392248090503 0.25428985454461966 0.729239607475029 1.804616118944239 -1.7298545245799233 0.0 0.0 0.0 0.0 0.0 0.0 0 33.269981384277344 33.39998245239258 31.349990844726562 38.959983825683594 41.7199821472168 43.129981994628906 0.358716 7 253 253 253 253 253 253 1 -6.14951229095459 -6.581057071685791 -0.3326490521430969 1.0 1.0 0.0 48.3125114440918 48.25174331665039 0.6087239384651184 48.0 48.029998779296875 48.029998779296875 48.04600143432617 48.0 47.95500183105469 0 1
11097.688 1.5707963267948972 -0.9164837042437952 1.6507530212402344 2.446536064147952 -1.5723751227008256 0.788799822330474 0.0 0.0 0.0 0.0 0.0 0.0 0.0 0.0 0.0 0.0 0.0 0.0 -4.9698346424733074e-17 -3.10307317465728 -1.062087631657945 -0.04848680224919913 -2.5561648528743482e-06 0.0 -5.634278987228951e-16 -35.273593764502415 -12.026036211963966 -0.4031401294505821 -2.1372821845480153e-05 0.0 1.5707858800888062 -0.9164837042437952 1.6507530212402344 2.446500301361084 -1.5724590460406702 0.7888477444648743 0.0 0.0 -0.0 0.0 0.0 0.0 0.24659916758537292 -3.1587109565734863 -1.0962454080581665 0.0030500823631882668 0.007625205907970667 0.11590313166379929 0.2376319169998169 -3.1631946563720703 -1.0940035581588745 0.0 0.007625205907970667 0.10370279848575592 0.11226588581553881 -0.6350371850672389 0.2542930243447575 0.7293558886516621 1.804543518767953 -1.7299147303357887 0.0 0.0 0.0 0.0 0.0 0.0 -5.822564804636997 0.9473132094953373 -2.304237034626339 -0.5991326177134444 1.0785850012948515 0.4566398950940205 0.11227945996387118 -0.6350392248090503 0.25428985454461966 0.729239607475029 1.804616118944239 -1.7298545245799233 0.0 0.0 0.0 0.0 0.0 0.0 0 33.269981384277344 33.39998245239258 31.349990844726562 38.959983825683594 41.7199821472168 43.129981994628906 0.358357 7 253 253 253 253 253 253 1 -6.155506134033203 -6.5540852546691895 -0.32665538787841797 1.0 1.0 0.0 48.3125114440918 48.25174331665039 0.5729187726974487 48.0 48.029998779296875 47.986000061035156 48.04600143432617 48.0 47.95500183105469 0 1
11097.696 1.5707963267948972 -0.9164837042437952 1.6507530212402344 2.446536064147952 -1.5723751227008256 0.788799822330474 0.0 0.0 0.0 0.0 0.0 0.0 0.0 0.0 0.0 0.0 0.0 0.0 -4.9698346424733074e-17 -3.10307317465728 -1.062087631657945 -0.04848680224919913 -2.5561648528743482e-06 0.0 -5.634278987228951e-16 -35.273593764502415 -12.026036211963966 -0.4031401294505821 -2.1372821845480153e-05 0.0 1.5707619190216064 -0.9164837042437952 1.6507411003112793 2.446512222290039 -1.572423283253805 0.788787841796875 0.0 0.0 -0.0 0.0 0.0 0.0 0.25108277797698975 -3.1273257732391357 -1.0805526971817017 0.0015250411815941334 0.0091502470895648 0.10675287991762161 0.2376319169998169 -3.1519856452941895 -1.0940035581588745 0.0 0.0091502470895648 0.10370279848575592 0.11225363284759296 -0.635042992623024 0.2542964461391914 0.7292981953265255 1.8045834404701027 -1.7299445147549912 0.0 0.0 0.0 0.0 0.0 0.0 -5.8966024886626895 0.9640727681568416 -1.549962986373387 -0.5174017265018862 0.9928004689811621 0.4448293496248193 0.11227945996387118 -0.6350392248090503 0.25428985454461966 0.729239607475029 1.804616118944239 -1.7298545245799233 0.0 0.0 0.0 0.0 0.0 0.0 0 33.269981384277344 33.39998245239258 31.349990844726562 38.959983825683594 41.7199821472168 43.129981994628906 0.357444 7 253 253 253 253 253 253 1 -6.1824774742126465 -6.557082176208496 -0.3566237688064575 1.0 1.0 0.0 48.3125114440918 48.25174331665039 0.6445291042327881 48.0 48.029998779296875 47.986000061035156 48.04600143432617 48.0 47.95500183105469 0 1
11097.704 1.5707963267948972 -0.9164837042437952 1.6507530212402344 2.446536064147952 -1.5723751227008256 0.788799822330474 0.0 0.0 0.0 0.0 0.0 0.0 0.0 0.0 0.0 0.0 0.0 0.0 -4.9698346424733074e-17 -3.10307317465728 -1.062087631657945 -0.04848680224919913 -2.5561648528743482e-06 0.0 -5.634278987228951e-16 -35.273593764502415 -12.026036211963966 -0.4031401294505821 -2.1372821845480153e-05 0.0 1.5707979202270508 -0.9164837042437952 1.6507654190063477 2.4464879035949707 -1.5724471251117151 0.7888237833976746 0.0 0.0 -0.0 0.0 0.0 0.0 0.20624656975269318 -3.1519856452941895 -1.0940035581588745 0.0030500823631882668 0.010675288736820221 0.09150247275829315 0.2376319169998169 -3.1519856452941895 -1.0940035581588745 0.0 0.010675288736820221 0.10370279848575592 0.11227451009650954 -0.6350325518818953 0.2542894180785236 0.7293130414265782 1.8045607458032435 -1.7299141491084546 0.0 0.0 0.0 0.0 0.0 0.0 -4.836888757814571 1.002033288619889 -2.1536402822007488 -0.5799798675024511 0.8514321929104779 0.33745185804200684 0.11227945996387118 -0.6350392248090503 0.25428985454461966 0.729239607475029 1.804616118944239 -1.7298545245799233 0.0 0.0 0.0 0.0 0.0 0.0 0 33.269981384277344 33.39998245239258 31.349990844726562 38.959983825683594 41.7199821472168 43.129981994628906 0.3582 7 253 253 253 253 253 253 1 -6.128534317016602 -6.530110836029053 -0.3476332426071167 1.0 1.0 0.0 48.25174331665039 48.25174331665039 0.6087239384651184 48.0 48.029998779296875 47.986000061035156 48.04600143432617 48.0 47.95500183105469 0 1
11097.712 1.5707963267948972 -0.9164837042437952 1.6507530212402344 2.446536064147952 -1.5723751227008256 0.788799822330474 0.0 0.0 0.0 0.0 0.0 0.0 0.0 0.0 0.0 0.0 0.0 0.0 -4.9698346424733074e-17 -3.10307317465728 -1.062087631657945 -0.04848680224919913 -2.5561648528743482e-06 0.0 -5.634278987228951e-16 -35.273593764502415 -12.026036211963966 -0.4031401294505821 -2.1372821845480153e-05 0.0 1.5708098411560059 -0.9165075461017054 1.6507172584533691 2.4464879035949707 -1.5724108854876917 0.7888237833976746 0.0 0.0 -0.0 0.0 0.0 0.0 0.23539011180400848 -3.1587109565734863 -1.085036277770996 -0.0015250411815941334 0.0091502470895648 0.10370279848575592 0.2376319169998169 -3.1519856452941895 -1.0940035581588745 0.0 0.010675288736820221 0.09912768006324768 0.11228510655791325 -0.6350355435817664 0.25432264662775966 0.7292355878558222 1.8044923322883235 -1.7299383075415553 0.0 0.0 0.0 0.0 0.0 0.0 -5.422129557598674 0.40978121594733513 -2.153638374832935 -0.5920986907559969 0.9646638094675993 0.4051581276562691 0.11227945996387118 -0.6350392248090503 0.25428985454461966 0.729239607475029 1.804616118944239 -1.7298545245799233 0.0 0.0 0.0 0.0 0.0 0.0 0 33.269981384277344 33.39998245239258 31.349990844726562 38.959983825683594 41.7199821472168 43.129981994628906 0.37152 7 253 253 253 253 253 253 1 -6.158502578735352 -6.581057071685791 -0.3686111271381378 1.0 1.0 0.0 48.3125114440918 48.25174331665039 0.6087239384651184 48.0 48.029998779296875 47.986000061035156 48.04600143432617 48.0 47.939998626708984 0 1
11097.72 1.5707963267948972 -0.9164837042437952 1.6507530212402344 2.446536064147952 -1.5723751227008256 0.788799822330474 0.0 0.0 0.0 0.0 0.0 0.0 0.0 0.0 0.0 0.0 0.0 0.0 -4.9698346424733074e-17 -3.10307317465728 -1.062087631657945 -0.04848680224919913 -2.5561648528743482e-06 0.0 -5.634278987228951e-16 -35.273593764502415 -12.026036211963966 -0.4031401294505821 -2.1372821845480153e-05 0.0 1.5707858800888062 -0.9164717833148401 1.6507773399353027 2.4464879035949707 -1.5724108854876917 0.7888118028640747 0.0 0.0 -0.0 0.0 0.0 0.0 0.23314829170703888 -3.1452600955963135 -1.0962454080581665 0.0 0.012200329452753067 0.11132800579071045 0.2376319169998169 -3.1519856452941895 -1.0940035581588745 0.0 0.010675288736820221 0.10065271705389023 0.11226985117957111 -0.6350337886189668 0.2542773268712289 0.7292899665861003 1.8045934084194255 -1.72988639692391 0.0 0.0 0.0 0.0 0.0 0.0 -5.482980921203484 1.2031523933622696 -1.9749240177811922 -0.5191840346774125 1.0386174502093102 0.3832219401644242 0.11227945996387118 -0.6350392248090503 0.25428985454461966 0.729239607475029 1.804616118944239 -1.7298545245799233 0.0 0.0 0.0 0.0 0.0 0.0 0 33.269981384277344 33.39998245239258 31.349990844726562 38.959983825683594 41.7199821472168 43.129981994628906 0.361896 7 253 253 253 253 253 253 1 -6.158502578735352 -6.545094966888428 -0.32665538787841797 1.0 1.0 0.0 48.25174331665039 48.25174331665039 0.7519552707672119 48.0 48.029998779296875 47.986000061035156 48.07600021362305 48.0 47.939998626708984 0 1
11097.728 1.5707963267948972 -0.9164837042437952 1.6507530212402344 2.446536064147952 -1.5723751227008256 0.788799822330474 0.0 0.0 0.0 0.0 0.0 0.0 0.0 0.0 0.0 0.0 0.0 0.0 -4.9698346424733074e-17 -3.10307317465728 -1.062087631657945 -0.04848680224919913 -2.5561648528743482e-06 0.0 -5.634278987228951e-16 -35.273593764502415 -12.026036211963966 -0.4031401294505821 -2.1372821845480153e-05 0.0 1.5708098411560059 -0.9164717833148401 1.6507411003112793 2.446524143218994 -1.57243520418276 0.7887998223304749 0.0 0.0 -0.0 0.0 0.0 0.0 0.2421155422925949 -3.1564693450927734 -1.100728988647461 0.0015250411815941334 0.007625205907970667 0.1128530502319336 0.2376319169998169 -3.1519856452941895 -1.0940035581588745 0.0 0.010675288736820221 0.10065271705389023 0.11228307781230479 -0.6350406820835222 0.2542878579360183 0.7292801716393089 1.8046018678515423 -1.7298956477937788 0.0 0.0 0.0 0.0 0.0 0.0 -5.76011647312489 1.16270452940327 -2.254615936009748 -0.5606601201599934 1.0501689133691245 0.44979388735450404 0.11227945996387118 -0.6350392248090503 0.25428985454461966 0.729239607475029 1.804616118944239 -1.7298545245799233 0.0 0.0 0.0 0.0 0.0 0.0 0 33.269981384277344 33.39998245239258 31.349990844726562 38.959983825683594 41.7199821472168 43.129981994628906 0.358765 7 253 253 253 253 253 253 1 -6.1225409507751465 -6.563076019287109 -0.3506300747394562 1.0 1.0 0.0 48.25174331665039 48.25174331665039 0.6087239384651184 48.0 48.029998779296875 47.986000061035156 48.07600021362305 48.0 47.939998626708984 0 1
11097.735999999999 1.5707963267948972 -0.9164837042437952 1.6507530212402344 2.446536064147952 -1.5723751227008256 0.788799822330474 0.0 0.0 0.0 0.0 0.0 0.0 0.0 0.0 0.0 0.0 0.0 0.0 -4.9698346424733074e-17 -3.10307317465728 -1.062087631657945 -0.04848680224919913 -2.5561648528743482e-06 0.0 -5.634278987228951e-16 -35.273593764502415 -12.026036211963966 -0.4031401294505821 -2.1372821845480153e-05 0.0 1.5708218812942505 -0.9164956251727503 1.6507530212402344 2.4464879035949707 -1.5724471251117151 0.7888477444648743 0.0 0.0 -0.0 0.0 0.0 0.0 0.2398737221956253 -3.1430184841156006 -1.102970838546753 0.0030500823631882668 0.012200329452753067 0.10675287991762161 0.2376319169998169 -3.1519856452941895 -1.0940035581588745 0.0 0.015250411815941334 0.10522784292697906 0.11228973530062682 -0.6350300295218386 0.2543016536240691 0.729297358892274 1.8045225340878455 -1.7299024224449384 0.0 0.0 0.0 0.0 0.0 0.0 -5.71015350428255 1.5779227763052708 -2.023471336814434 -0.516761075563199 0.9945313078848821 0.3998681228732285 0.11227945996387118 -0.6350392248090503 0.25428985454461966 0.729239607475029 1.804616118944239 -1.7298545245799233 0.0 0.0 0.0 0.0 0.0 0.0 0 33.269981384277344 33.39998245239258 31.349990844726562 38.959983825683594 41.7199821472168 43.129981994628906 0.358296 7 253 253 253 253 253 253 1 -6.1375250816345215 -6.560079097747803 -0.30567750334739685 1.0 1.0 0.0 48.25174331665039 48.25174331665039 0.7161448001861572 48.0 48.029998779296875 47.986000061035156 48.07600021362305 48.0 47.939998626708984 0 1
11097.743999999999 1.5707963267948972 -0.9164837042437952 1.6507530212402344 2.446536064147952 -1.5723751227008256 0.788799822330474 0.0 0.0 0.0 0.0 0.0 0.0 0.0 0.0 0.0 0.0 0.0 0.0 -4.9698346424733074e-17 -3.10307317465728 -1.062087631657945 -0.04848680224919913 -2.5561648528743482e-06 0.0 -5.634278987228951e-16 -35.273593764502415 -12.026036211963966 -0.4031401294505821 -2.1372821845480153e-05 0.0 1.5707979202270508 -0.9164717833148401 1.6507530212402344 2.4464879035949707 -1.572423283253805 0.7888118028640747 0.0 0.0 -0.0 0.0 0.0 0.0 0.21969743072986603 -3.1430184841156006 -1.0940035581588745 0.0030500823631882668 0.012200329452753067 0.09607759118080139 0.2376319169998169 -3.1519856452941895 -1.0940035581588745 0.0 0.010675288736820221 0.10217776149511337 0.11227648463326967 -0.6350366348449623 0.2542864900287363 0.7292799267737498 1.8045694972253317 -1.7299060751376123 0.0 0.0 0.0 0.0 0.0 0.0 -5.163457124073983 1.2016861480066017 -1.9723992581848515 -0.5463178504671 0.8946640212205053 0.35146052819476714 0.11227945996387118 -0.6350392248090503 0.25428985454461966 0.729239607475029 1.804616118944239 -1.7298545245799233 0.0 0.0 0.0 0.0 0.0 0.0 0 33.269981384277344 33.39998245239258 31.349990844726562 38.959983825683594 41.7199821472168 43.129981994628906 0.359148 7 253 253 253 253 253 253 1 -6.155506134033203 -6.557082176208496 -0.3236585259437561 1.0 1.0 0.0 48.25174331665039 48.25174331665039 0.7161448001861572 48.0 48.06100082397461 47.986000061035156 48.07600021362305 48.0 47.939998626708984 0 1
11097.752 1.5707963267948972 -0.9164837042437952 1.6507530212402344 2.446536064147952 -1.5723751227008256 0.788799822330474 0.0 0.0 0.0 0.0 0.0 0.0 0.0 0.0 0.0 0.0 0.0 0.0 -4.9698346424733074e-17 -3.10307317465728 -1.062087631657945 -0.04848680224919913 -2.5561648528743482e-06 0.0 -5.634278987228951e-16 -35.273593764502415 -12.026036211963966 -0.4031401294505821 -2.1372821845480153e-05 0.0 1.5707619190216064 -0.9164717833148401 1.6507411003112793 2.446500301361084 -1.572423283253805 0.7888237833976746 0.0 0.0 -0.0 0.0 0.0 0.0 0.2376319169998169 -3.1362929344177246 -1.085036277770996 0.0030500823631882668 0.016775453463196754 0.09607759118080139 0.2376319169998169 -3.1519856452941895 -1.0940035581588745 0.0 0.013725370168685913 0.10217776149511337 0.11225362925651595 -0.6350438663723568 0.2542899052963918 0.7293263042081202 1.8045596448424854 -1.7299212832370492 0.0 0.0 0.0 0.0 0.0 0.0 -5.453166648757367 0.9752485112410874 -1.7861118300431147 -0.5511749242464932 0.8953537637766732 0.33295443254810086 0.11227945996387118 -0.6350392248090503 0.25428985454461966 0.729239607475029 1.804616118944239 -1.7298545245799233 0.0 0.0 0.0 0.0 0.0 0.0 0 33.269981384277344 33.39998245239258 31.349990844726562 38.959983825683594 41.7199821472168 43.129981994628906 0.37242 7 253 253 253 253 253 253 1 -6.143518447875977 -6.566072940826416 -0.33864274621009827 1.0 1.0 0.0 48.3125114440918 48.25174331665039 0.6087239384651184 48.0 48.06100082397461 47.986000061035156 48.07600021362305 48.0 47.939998626708984 0 1
11097.76 1.5707963267948972 -0.9164837042437952 1.6507530212402344 2.446536064147952 -1.5723751227008256 0.788799822330474 0.0 0.0 0.0 0.0 0.0 0.0 0.0 0.0 0.0 0.0 0.0 0.0 -4.9698346424733074e-17 -3.10307317465728 -1.062087631657945 -0.04848680224919913 -2.5561648528743482e-06 0.0 -5.634278987228951e-16 -35.273593764502415 -12.026036211963966 -0.4031401294505821 -2.1372821845480153e-05 0.0 1.5707979202270508 -0.9165075461017054 1.6507654190063477 2.4464879035949707 -1.572423283253805 0.7888357639312744 0.0 0.0 -0.0 0.0 0.0 0.0 0.23314829170703888 -3.1609528064727783 -1.0917617082595825 -0.0015250411815941334 0.015250411815941334 0.10675287991762161 0.2376319169998169 -3.1519856452941895 -1.0940035581588745 0.0 0.015250411815941334 0.10065271705389023 0.11227648670768282 -0.6350285989190849 0.25430453532551706 0.7292891343700273 1.8045305667492642 -1.7299089939757808 0.0 0.0 0.0 0.0 0.0 0.0 -5.316060415874982 0.6436638982986893 -2.238937808002043 -0.5790920651954566 0.9962782435919983 0.3400036095369264 0.11227945996387118 -0.6350392248090503 0.25428985454461966 0.729239607475029 1.804616118944239 -1.7298545245799233 0.0 0.0 0.0 0.0 0.0 0.0 0 33.269981384277344 33.39998245239258 31.349990844726562 38.959983825683594 41.7199821472168 43.129981994628906 0.412416 7 253 253 253 253 253 253 1 -6.143518447875977 -6.563076019287109 -0.3566237688064575 1.0 1.0 0.0 48.3125114440918 48.3125114440918 0.6445291042327881 48.01499938964844 48.06100082397461 48.01499938964844 48.07600021362305 48.0 47.939998626708984 0 1
11097.768 1.5707963267948972 -0.9164837042437952 1.6507530212402344 2.446536064147952 -1.5723751227008256 0.788799822330474 0.0 0.0 0.0 0.0 0.0 0.0 0.0 0.0 0.0 0.0 0.0 0.0 -4.9698346424733074e-17 -3.10307317465728 -1.062087631657945 -0.04848680224919913 -2.5561648528743482e-06 0.0 -5.634278987228951e-16 -35.273593764502415 -12.026036211963966 -0.4031401294505821 -2.1372821845480153e-05 0.0 1.5708098411560059 -0.91644794145693 1.6507530212402344 2.4464879035949707 -1.57243520418276 0.7888477444648743 0.0 0.0 -0.0 0.0 0.0 0.0 0.22418105602264404 -3.1475019454956055 -1.085036277770996 0.0015250411815941334 0.015250411815941334 0.09912768006324768 0.2376319169998169 -3.1519856452941895 -1.0940035581588745 0.0 0.012200329452753067 0.10065271705389023 0.11228306378098123 -0.635039239417738 0.2542713610271838 0.7293174116420815 1.804569537970759 -1.7298647659457094 0.0 0.0 0.0 0.0 0.0 0.0 -5.117335265693589 0.7045678553664938 -1.9854347207946863 -0.579496835857251 0.9245223719352365 0.32100289758281775 0.11227945996387118 -0.6350392248090503 0.25428985454461966 0.729239607475029 1.804616118944239 -1.7298545245799233 0.0 0.0 0.0 0.0 0.0 0.0 0 33.269981384277344 33.39998245239258 31.349990844726562 38.959983825683594 41.7199821472168 43.129981994628906 0.368017 7 253 253 253 253 253 253 1 -6.1525092124938965 -6.575063228607178 -0.3506300747394562 1.0 1.0 0.0 48.25174331665039 48.25174331665039 0.7877604365348816 48.01499938964844 48.06100082397461 48.01499938964844 48.07600021362305 48.0 47.939998626708984 0 1
11097.776 1.5707963267948972 -0.9164837042437952 1.6507530212402344 2.446536064147952 -1.5723751227008256 0.788799822330474 0.0 0.0 0.0 0.0 0.0 0.0 0.0 0.0 0.0 0.0 0.0 0.0 -4.9698346424733074e-17 -3.10307317465728 -1.062087631657945 -0.04848680224919913 -2.5561648528743482e-06 0.0 -5.634278987228951e-16 -35.273593764502415 -12.026036211963966 -0.4031401294505821 -2.1372821845480153e-05 0.0 1.5707979202270508 -0.9164598623858851 1.6507411003112793 2.4464521408081055 -1.572423283253805 0.7888357639312744 0.0 0.0 -0.0 0.0 0.0 0.0 0.21745562553405762 -3.1519856452941895 -1.102970838546753 0.0015250411815941334 0.0091502470895648 0.09455255419015884 0.2376319169998169 -3.1519856452941895 -1.0940035581588745 0.0 0.010675288736820221 0.10065271705389023 0.11227648569436367 -0.635037374999487 0.2542864939060588 0.72928394393937 1.804518069229284 -1.7299181763221863 0.0 0.0 0.0 0.0 0.0 0.0 -5.192945178805473 1.355455744613852 -2.174391276162275 -0.5349276847414396 0.8791285610824846 0.38142153504428145 0.11227945996387118 -0.6350392248090503 0.25428985454461966 0.729239607475029 1.804616118944239 -1.7298545245799233 0.0 0.0 0.0 0.0 0.0 0.0 0 33.269981384277344 33.39998245239258 31.349990844726562 38.959983825683594 41.7199821472168 43.129981994628906 0.358872 7 253 253 253 253 253 253 1 -6.125537395477295 -6.563076019287109 -0.31766486167907715 1.0 1.0 0.0 48.3125114440918 48.25174331665039 0.6445291042327881 48.01499938964844 48.06100082397461 48.01499938964844 48.07600021362305 48.04600143432617 47.939998626708984 0 1
11097.784 1.5707963267948972 -0.9164837042437952 1.6507530212402344 2.446536064147952 -1.5723751227008256 0.788799822330474 0.0 0.0 0.0 0.0 0.0 0.0 0.0 0.0 0.0 0.0 0.0 0.0 -4.9698346424733074e-17 -3.10307317465728 -1.062087631657945 -0.04848680224919913 -2.5561648528743482e-06 0.0 -5.634278987228951e-16 -35.273593764502415 -12.026036211963966 -0.4031401294505821 -2.1372821845480153e-05 0.0 1.5708098411560059 -0.9164598623858851 1.6507291793823242 2.4464640617370605 -1.5724108854876917 0.7888237833976746 0.0 0.0 -0.0 0.0 0.0 0.0 0.22418105602264404 -3.1228420734405518 -1.098487138748169 0.0 0.013725370168685913 0.0930275097489357 0.2376319169998169 -3.1519856452941895 -1.0940035581588745 0.0 0.010675288736820221 0.10217776149511337 0.11228508773821985 -0.6350391727333945 0.25428993832725616 0.7292501723053387 1.8045275641273775 -1.729909989343264 0.0 0.0 0.0 0.0 0.0 0.0 -5.356316295926189 1.7936805970954246 -1.5303009472464768 -0.42508850443651935 0.8668058225385779 0.3504723262976308 0.11227945996387118 -0.6350392248090503 0.25428985454461966 0.729239607475029 1.804616118944239 -1.7298545245799233 0.0 0.0 0.0 0.0 0.0 0.0 0 33.269981384277344 33.39998245239258 31.349990844726562 38.959983825683594 41.7199821472168 43.129981994628906 0.357528 7 253 253 253 253 253 253 1 -6.1375250816345215 -6.584053993225098 -0.3716079592704773 1.0 1.0 0.0 48.25174331665039 48.25174331665039 0.6087239384651184 48.01499938964844 48.06100082397461 48.01499938964844 48.07600021362305 48.04600143432617 47.939998626708984 0 1
11097.792 1.5707963267948972 -0.9164837042437952 1.6507530212402344 2.446536064147952 -1.5723751227008256 0.788799822330474 0.0 0.0 0.0 0.0 0.0 0.0 0.0 0.0 0.0 0.0 0.0 0.0 -4.9698346424733074e-17 -3.10307317465728 -1.062087631657945 -0.04848680224919913 -2.5561648528743482e-06 0.0 -5.634278987228951e-16 -35.273593764502415 -12.026036211963966 -0.4031401294505821 -2.1372821845480153e-05 0.0 1.5707858800888062 -0.9164598623858851 1.6507411003112793 2.446512222290039 -1.57243520418276 0.7888357639312744 0.0 0.0 -0.0 0.0 0.0 0.0 0.20400476455688477 -3.1587109565734863 -1.085036277770996 -0.0015250411815941334 0.013725370168685913 0.09607759118080139 0.2376319169998169 -3.1519856452941895 -1.0940035581588745 0.0 0.010675288736820221 0.10217776149511337 0.1122678579577703 -0.6350442459951645 0.25428131708267304 0.7293327601453776 1.8045764098504042 -1.729887791755876 0.0 0.0 0.0 0.0 0.0 0.0 -4.617685048314114 0.41150715660851056 -2.1550817943654956 -0.5926070582540659 0.8965067125380709 0.2931040157330558 0.11227945996387118 -0.6350392248090503 0.25428985454461966 0.729239607475029 1.804616118944239 -1.7298545245799233 0.0 0.0 0.0 0.0 0.0 0.0 0 33.269981384277344 33.39998245239258 31.349990844726562 38.959983825683594 41.7199821472168 43.129981994628906 0.35814 7 253 253 253 253 253 253 1 -6.134528160095215 -6.575063228607178 -0.3686111271381378 1.0 1.0 0.0 48.3125114440918 48.25174331665039 0.6087239384651184 48.01499938964844 48.06100082397461 48.01499938964844 48.06100082397461 48.04600143432617 47.92499923706055 0 1
11097.8 1.5707963267948972 -0.9164837042437952 1.6507530212402344 2.446536064147952 -1.5723751227008256 0.788799822330474 0.0 0.0 0.0 0.0 0.0 0.0 0.0 0.0 0.0 0.0 0.0 0.0 -4.9698346424733074e-17 -3.10307317465728 -1.062087631657945 -0.04848680224919913 -2.5561648528743482e-06 0.0 -5.634278987228951e-16 -35.273593764502415 -12.026036211963966 -0.4031401294505821 -2.1372821845480153e-05 0.0 1.5708098411560059 -0.9164837042437952 1.6507773399353027 2.446500301361084 -1.572423283253805 0.7887998223304749 0.0 0.0 -0.0 0.0 0.0 0.0 0.2398737221956253 -3.1475019454956055 -1.098487138748169 -0.0030500823631882668 0.012200329452753067 0.09607759118080139 0.2376319169998169 -3.1519856452941895 -1.0940035581588745 0.0 0.010675288736820221 0.10217776149511337 0.11228404590164429 -0.635030278337134 0.2542838384450845 0.7292685699623901 1.80460284393711 -1.7298868973048513 0.0 0.0 0.0 0.0 0.0 0.0 -5.626298345973941 1.2001261292365653 -1.971717917142477 -0.489087418198102 0.8937145643866137 0.3890484926193177 0.11227945996387118 -0.6350392248090503 0.25428985454461966 0.729239607475029 1.804616118944239 -1.7298545245799233 0.0 0.0 0.0 0.0 0.0 0.0 0 33.269981384277344 33.39998245239258 31.349990844726562 38.959983825683594 41.7199821472168 43.129981994628906 0.357696 7 253 253 253 253 253 253 1 -6.1375250816345215 -6.572066307067871 -0.359620600938797 1.0 1.0 0.0 48.3125114440918 48.25174331665039 0.6087239384651184 48.01499938964844 48.06100082397461 48.01499938964844 48.06100082397461 48.04600143432617 47.92499923706055 0 1
11097.807999999999 1.5707963267948972 -0.9164837042437952 1.6507530212402344 2.446536064147952 -1.5723751227008256 0.788799822330474 0.0 0.0 0.0 0.0 0.0 0.0 0.0 0.0 0.0 0.0 0.0 0.0 -4.9698346424733074e-17 -3.10307317465728 -1.062087631657945 -0.04848680224919913 -2.5561648528743482e-06 0.0 -5.634278987228951e-16 -35.273593764502415 -12.026036211963966 -0.4031401294505821 -2.1372821845480153e-05 0.0 1.5707858800888062 -0.9164598623858851 1.6507530212402344 2.446500301361084 -1.5723989645587366 0.7887998223304749 0.0 0.0 -0.0 0.0 0.0 0.0 0.2398737221956253 -3.1676783561706543 -1.08951997756958 0.0015250411815941334 0.0183004941791296 0.09912768006324768 0.2376319169998169 -3.1519856452941895 -1.0940035581588745 0.0 0.013725370168685913 0.10522784292697906 0.11227084703016711 -0.6350410709556321 0.2542778255268128 0.7292688341013938 1.8046020527036168 -1.729886180621853 0.0 0.0 0.0 0.0 0.0 0.0 -5.374522180394099 0.4434983390294134 -2.419230227998169 -0.6409515758411412 0.9242244655965521 0.31418409248357376 0.11227945996387118 -0.6350392248090503 0.25428985454461966 0.729239607475029 1.804616118944239 -1.7298545245799233 0.0 0.0 0.0 0.0 0.0 0.0 0 33.269981384277344 33.39998245239258 31.349990844726562 38.959983825683594 41.7199821472168 43.129981994628906 0.361668 7 253 253 253 253 253 253 1 -6.161499500274658 -6.5540852546691895 -0.3236585259437561 1.0 1.0 0.0 48.25174331665039 48.25174331665039 0.7161448001861572 48.01499938964844 48.06100082397461 48.01499938964844 48.06100082397461 48.04600143432617 47.92499923706055 0 1
11097.815999999999 1.5707963267948972 -0.9164837042437952 1.6507530212402344 2.446536064147952 -1.5723751227008256 0.788799822330474 0.0 0.0 0.0 0.0 0.0 0.0 0.0 0.0 0.0 0.0 0.0 0.0 -4.9698346424733074e-17 -3.10307317465728 -1.062087631657945 -0.04848680224919913 -2.5561648528743482e-06 0.0 -5.634278987228951e-16 -35.273593764502415 -12.026036211963966 -0.4031401294505821 -2.1372821845480153e-05 0.0 1.5708218812942505 -0.9164598623858851 1.6507773399353027 2.4464879035949707 -1.5724471251117151 0.7888357639312744 0.0 0.0 -0.0 0.0 0.0 0.0 0.2398737221956253 -3.1497437953948975 -1.098487138748169 0.0030500823631882668 0.010675288736820221 0.1098029613494873 0.2376319169998169 -3.1519856452941895 -1.0940035581588745 0.0 0.010675288736820221 0.10370279848575592 0.11228971442470155 -0.6350317420162147 0.2542697917994992 0.7293125901154762 1.8045898880196989 -1.729863103711948 0.0 0.0 0.0 0.0 0.0 0.0 -5.670751982624224 1.2406179455956783 -2.134928271186412 -0.5575146033987457 1.022634622247982 0.4127325805972939 0.11227945996387118 -0.6350392248090503 0.25428985454461966 0.729239607475029 1.804616118944239 -1.7298545245799233 0.0 0.0 0.0 0.0 0.0 0.0 0 33.269981384277344 33.39998245239258 31.349990844726562 38.959983825683594 41.7199821472168 43.129981994628906 0.366565 7 253 253 253 253 253 253 1 -6.14052152633667 -6.569069862365723 -0.28170281648635864 1.0 1.0 0.0 48.25174331665039 48.25174331665039 0.7161448001861572 48.01499938964844 48.04600143432617 48.01499938964844 48.06100082397461 48.04600143432617 47.92499923706055 0 1
11097.823999999999 1.5707963267948972 -0.9164837042437952 1.6507530212402344 2.446536064147952 -1.5723751227008256 0.788799822330474 0.0 0.0 0.0 0.0 0.0 0.0 0.0 0.0 0.0 0.0 0.0 0.0 -4.9698346424733074e-17 -3.10307317465728 -1.062087631657945 -0.04848680224919913 -2.5561648528743482e-06 0.0 -5.634278987228951e-16 -35.273593764502415 -12.026036211963966 -0.4031401294505821 -2.1372821845480153e-05 0.0 1.5707979202270508 -0.9165075461017054 1.6507773399353027 2.4464759826660156 -1.572423283253805 0.7888357639312744 0.0 0.0 -0.0 0.0 0.0 0.0 0.22193925082683563 -3.1542274951934814 -1.102970838546753 -0.0015250411815941334 0.0183004941791296 0.11590313166379929 0.2376319169998169 -3.1519856452941895 -1.0940035581588745 0.0 0.016775453463196754 0.10522784292697906 0.11227647984217064 -0.635025452836527 0.2543010788439339 0.7292891128078508 1.8045304898206806 -1.7299088331862098 0.0 0.0 0.0 0.0 0.0 0.0 -5.1369533509849665 1.2658228563911726 -2.168500427620083 -0.5173923135865465 1.0853852331801115 0.2988751129549558 0.11227945996387118 -0.6350392248090503 0.25428985454461966 0.729239607475029 1.804616118944239 -1.7298545245799233 0.0 0.0 0.0 0.0 0.0 0.0 0 33.269981384277344 33.39998245239258 31.349990844726562 38.959983825683594 41.7199821472168 43.129981994628906 0.35802 7 253 253 253 253 253 253 1 -6.143518447875977 -6.587050437927246 -0.34163957834243774 1.0 1.0 0.0 48.25174331665039 48.25174331665039 0.6445291042327881 48.01499938964844 48.04600143432617 48.01499938964844 48.06100082397461 48.04600143432617 47.92499923706055 0 1
11097.832 1.5707963267948972 -0.9164837042437952 1.6507530212402344 2.446536064147952 -1.5723751227008256 0.788799822330474 0.0 0.0 0.0 0.0 0.0 0.0 0.0 0.0 0.0 0.0 0.0 0.0 -4.9698346424733074e-17 -3.10307317465728 -1.062087631657945 -0.04848680224919913 -2.5561648528743482e-06 0.0 -5.634278987228951e-16 -35.273593764502415 -12.026036211963966 -0.4031401294505821 -2.1372821845480153e-05 0.0 1.5708218812942505 -0.9164837042437952 1.6507411003112793 2.446500301361084 -1.572423283253805 0.7888237833976746 0.0 0.0 -0.0 0.0 0.0 0.0 0.2398737221956253 -3.1475019454956055 -1.0940035581588745 0.0030500823631882668 0.015250411815941334 0.10065271705389023 0.2376319169998169 -3.1519856452941895 -1.0940035581588745 0.0 0.013725370168685913 0.10370279848575592 0.11229171049336031 -0.6350351672981986 0.25429747558105875 0.7292601672254876 1.8045520102922554 -1.7298921358648436 0.0 0.0 0.0 0.0 0.0 0.0 -5.559141592567347 1.1018479748609333 -2.0637707958862124 -0.5637574825110916 0.9377491262211705 0.35745572282029203 0.11227945996387118 -0.6350392248090503 0.25428985454461966 0.729239607475029 1.804616118944239 -1.7298545245799233 0.0 0.0 0.0 0.0 0.0 0.0 0 33.269981384277344 33.39998245239258 31.349990844726562 38.959983825683594 41.7199821472168 43.129981994628906 0.358656 7 253 253 253 253 253 253 1 -6.11954402923584 -6.587050437927246 -0.3626174330711365 1.0 1.0 0.0 48.3125114440918 48.25174331665039 0.7161448001861572 48.01499938964844 48.04600143432617 48.01499938964844 48.06100082397461 48.04600143432617 47.92499923706055 0 1
